!!!!SEGMENT: pl-wtm--r-2041_smietanski-emil-wladyslaw--rhapsodie-sur-de-themes-polonais.krn
!!!cenid: 18xx:1985
!!!COM: Śmietański, Emil Władysław
!!!COM-rismID: pe50041781
!!!CDT: 1845-1886
!!!CNT: Polish
!!!OTL: Rhapsodie sur de themes polonais
!!!PDT:
!!!AGN: Secular
!!!YEC: Copyright 2022 Narodowy Instytut Fryderyka Chopina (https://polishscores.org)
!!!YEM: License CC-BY-4.0 (https://creativecommons.org/licenses/by/4.0)
!!!SMS-siglum: PL-Wtm
!!!SMS-shelfmark: R 2041
!!!SMS-shelfwork: W
!!!SMS-variant:
!!!SMS-altvar:
!!!NIFC-rismSourceID: 1001112688
!!!NIFC-rismChildID: 1001112688
!!!NIFC-islandoraID: pl-wtm:29641
!!!URL-pdf-islandora: https://repozytorium.nifc.pl/islandora/object/pl-wtm%3A29641/datastream/PDF/view
!!!URL-scan: https://polish.musicsources.pl/pl/lokalizacje/galeria/rekopisy/6532 @EN{Scan on Polish Music Sources Website} @PL{Skany w portalu Dziedzictwo Muzyki Polskiej w otwartym dostępie}
!!!IIIF:
!!!ONB-nifc:
!!!OMD: Tempo moderato.
!!!AIN: 1 empty
!!!key:
**kern	**kern	**dynam
*part1	*part1	*
*staff2	*staff1	*
*Iempty	*Iforte	*
*	*I"Fortepian	*
*>[A,B,B1,B,B2,C,D,D1,D,D2,E,F,F,G]	*>[A,B,B1,B,B2,C,D,D1,D,D2,E,F,F,G]	*>[A,B,B1,B,B2,C,D,D1,D,D2,E,F,F,G]
*>A	*>A	*>A
*clefF4	*clefG2	*
*k[f#c#]	*k[f#c#]	*
*D:	*D:	*
*M4/4	*M4/4	*
*met(c)	*met(c)	*
=1	=1	=1
*2\right	*	*
!	!LO:TX:a:i:t=Introduzione.	!
2D 2AA 2DD\	2f#< 2d< 2A< 2F#</	mf
4D 4AA 4DD\	4f#< 4d< 4A< 4F#</	.
!	!LO:TX:b:i:t=espressivo.	!
4D 4AA 4DD\	4f#< 4d< 4A< 4F#</	.
=2	=2	=2
2AA 2AAA\	2e< 2c#< 2G</	.
2AA#X 2AAA#X\	2e< 2c#< 2G</	.
=3	=3	=3
*	*^	*
2BB 2BBB\	2d< 2B< 2F#</	2ryy	.
2BB 2BBB\	4e</	2B< 2G#X< 2E#X<\	.
.	4d</	.	.
*	*v	*v	*
=4	=4	=4
4FF# 4FFF#\	4c#< 4A#X< 4F#< 4C#<;/	.
*Xtuplet	*Xtuplet	*
*rscale:1/2	*rscale:1/2	*
28FF#\LL	28C#/LL	.
28AA#X\	28F#/	.
28C#\	28A#/	.
28F#\JJ	28c#/JJ	.
28A#X\LL	28f#\LL	.
28c#\	28a#X\	.
28f#\JJ	28cc#\JJ	.
*rscale:1	*rscale:1	*
*	*tremolo	*
16a\LL	16ff#/LL	.
16f#\	16cc#/	.
16a\	16ff#/	.
16f#\	16cc#/	.
16a\	16ff#/	.
16f#\	16cc#/	.
16a\	16ff#/	.
16f#\JJ	16cc#/JJ	.
=5	=5	=5
16B>\LL	16ff#/LL	<
16f#>\	16dd/	.
16b>\	16ff#/	.
16f#>\JJ	16dd/	.
16b>\LL	16ff#/	.
16f#>\	16dd/	.
16b>\	16ff#/	.
16f#>\JJ	16dd/JJ	.
*	*Xtremolo	*
!!LO:LB:g=original
16b>\LL	16ff#/LL	[ >
16f#>\	16ee/	.
16b>\	16ff#/	.
16f#>\JJ	16ee/JJ	.
16b>\LL	16ff#/LL	.
16f#>\	16dd/	]
16b>\	16ff#/	.
16f#>\JJ	16dd/JJ	.
=6	=6	=6
*	*tremolo	*
!LO:TX:t=P:problem=mixed beam	!	!
16F#/LL	16ff#/LL	.
16f#>\	16cc#/	.
16a#X>\	16ff#/	.
16f#>\JJ	16cc#/	<
16a#>\LL	16ff#/	.
16f#>\	16cc#/	.
16a#>\	16ff#/	.
16f#>\JJ	16cc#/JJ	.
*tremolo	*	*
16a#>\LL	16ff#/LL	.
16f#>\	16cc#/	.
16a#>\	16ff#/	.
16f#>\	16cc#/	.
16a#>\	16ff#/	.
16f#>\	16cc#/	.
16a#>\	16ff#/	.
16f#>\JJ	16cc#/JJ	[
*	*Xtremolo	*
=7	=7	=7
16a#X>\LL	12ff#/L	.
16f#>\	.	.
.	12cc#/	.
16a#>\	.	.
.	12ff#/J	.
16f#>\	.	.
16a#>\	12ccc#/L	>
16f#>\	.	.
.	12ff#/	.
16a#>\	.	.
.	12ccc#/J	.
16f#>\JJ	.	.
*	*8va	*
16a#>\LL	12fff#/L	.
16f#>\	.	.
.	12ccc#/	]
16a#>\	.	.
.	12fff#/J	.
16f#>\	.	.
16a#>\	12cccc#/L	.
16f#>\	.	.
.	12fff#/	.
16a#>\	.	.
.	12cccc#/J	.
16f#>\JJ	.	.
*Xtremolo	*	*
=8	=8	=8
2.a#X> 2.f#>\	2.ffff#/	.
*	*X8va	*
4r>	4ff# 4f#/	.
=9	=9	=9
!	!	!LO:DY:t=mf.
8DD/L	2ff# 2dd 2a 2f#/	mf
8AA/	.	.
8D/	.	.
8C#/J	.	.
8D/L	4ff# 4dd 4a 4f#/	.
8F#/	.	.
8A/	4ff# 4dd 4a 4f#/	.
8B/J	.	.
!!LO:LB:g=original
=10	=10	=10
*	*2\right	*
8c#\L	2ee 2cc# 2a 2e\	.
8A\	.	.
8B\	.	.
8A\J	.	.
8G\L	2ee 2cc# 2e\	.
8A\	.	.
8G\	.	.
8AA#X\J	.	.
=11	=11	=11
8BB\L	2dd 2b 2f# 2d\	.
8BBB\	.	.
8BB\	.	.
8AA\J	.	.
8GG#X\L	4ee 4b 4e\	.
8E\	.	.
8F#\	4dd 4b 4d\	.
8G\J	.	.
=12	=12	=12
8A\L	1cc# 1a 1e 1c#	.
8G#X\	.	.
8A\	.	.
8E\J	.	.
8C#\L	.	.
8E\	.	.
8C#\	.	.
8AA\J	.	.
=13	=13	=13
16AAA\LL	16ryy	.
16AA\	16E</LL	.
16C#\	16A</	.
16E\JJ	16c#</JJ	.
16A\LL	16e\LL	.
16c#\	16a\	.
16e\	16cc#\	.
16a\JJ	16ee\JJ	.
*clefG2	*	*
*tremolo	*tremolo	*
16cc#/LL	16aa\LL	.
16a/	16ee\	.
16cc#/	16aa\	.
16a/	16ee\	.
16cc#/	16aa\	.
16a/	16ee\	.
16cc#/	16aa\	.
16a/JJ	16ee\JJ	.
*Xtremolo	*	*
=14	=14	=14
16d/LL	16aa\LL	<
16a/	16ff\	.
16dd/	16aa\	.
16a/JJ	16ff\	.
16dd/LL	16aa\	.
16a/	16ff\	.
16dd/	16aa\	.
16a/JJ	16ffn\JJ	.
*tremolo	*Xtremolo	*
16dd/LL	16aa\LL	.
16a/	16gg\	[
16dd/	16aa\	.
16a/	16gg\JJ	>
16dd/	16aa\LL	.
16a/	16ff\	.
16dd/	16aa\	.
16a/JJ	16ff\JJ	]]
*Xtremolo	*	*
!!LO:LB:g=original
=15	=15	=15
*	*tremolo	*
16A/LL	16aa\LL	<
16a/	16ee\	.
16cc#/	16aa\	.
16a/JJ	16ee\	.
16cc#/LL	16aa\	.
16a/	16ee\	.
16cc#/	16aa\	.
16a/JJ	16ee\JJ	.
*tremolo	*	*
16cc#/LL	16aa\LL	.
16a/	16ee\	.
16cc#/	16aa\	.
16a/	16ee\	.
16cc#/	16aa\	.
16a/	16ee\	.
16cc#/	16aa\	.
16a/JJ	16ee\JJ	[[
*	*Xtremolo	*
=16	=16	=16
16cc#/LL	12aa\L	>
16a/	.	.
.	12ee\	.
16cc#/	.	.
.	12aa\J	.
16a/	.	.
16cc#/	12eee\L	.
16a/	.	.
.	12aa\	.
16cc#/	.	.
.	12eee\J	.
16a/JJ	.	.
*	*8va	*
16cc#/LL	12aaa\L	.
16a/	.	.
.	12eee\	.
16cc#/	.	.
.	12aaa\J	.
16a/	.	.
16cc#/	12eeee\L	.
16a/	.	.
.	12aaa\	]
16cc#/	.	.
.	12eeee\J	.
16a/JJ	.	.
*Xtremolo	*	*
=17	=17	=17
2.cc# 2.a/	2.aaaa\	.
*	*X8va	*
4r	4A/	.
*clefF4	*	*
=18	=18	=18
1ryy	2A< 2G< 2C#< 2AA</	.
.	4B< 4BB</	.
.	4c#< 4AA</	.
=19	=19	=19
*	*^	*
1AA 1DD	1d< 1A< 1Fn< 1D<	2ryy	.
.	.	4E<\	.
.	.	4F<\	.
!!LO:LB:g=original
=20	=20	=20	=20
*^	*	*	*
!	!	!	!	!LO:HP:a:t=cresc
4E/	1Cn	4cn/	1B-X	<
4E/	.	4c/	.	.
4D/	.	4d/	.	.
4C/	.	4e/	.	.
*	*	*v	*v	*
=21	=21	=21	=21
4Fn/	1Cn 1FFn	1fn 1cn 1A	.
4F/	.	.	.
4G/	.	.	.
4A/	.	.	.
=22	=22	=22	=22
*	*	*^	*
!	!	!	!	!LO:HP:a:t=cresc
4G#X/	1E	4e/	1d	<
4G#/	.	4e/	.	.
4F#X/	.	4f#X/	.	.
4E/	.	4g#X/	.	.
*v	*v	*	*	*
*	*v	*v	*
=23	=23	=23
4A 4E 4AA\	4a 4e 4c#/	.
4AAA\	4ryy	.
!LO:TX:a:t=md	!	!
4ryy	4AA</	.
!LO:TX:a:t=ms	!	!
4A\	4ryy	.
=24	=24	=24
!	!LO:TX:b:i:t=Cadenza con bravura	!
[1gg> [1cc#>	[1eee [1aa;	.
16gg>]LL 16cc#>\]	16eee]LL 16aa/]	.
16gg> 16ccn>\	16ddd#X 16aa/	.
16gg> 16cc>\	16ddd# 16aa/	.
16gg>JJ 16b>\	16dddnJJ 16aa/	.
!!LO:LB:g=original
16gg>LL 16b>\	16dddLL 16aa/	.
16gg> 16ccnX>\	16ddd#X 16aa/	.
16gg> 16cc>\	16ddd# 16aa/	.
16gg>JJ 16cc#X>\	16eeeJJ 16aa/	.
16gg>LL 16cc#>\	16eeeLL 16aa/	.
16gg> 16ccn>\	16ddd#X 16aa/	.
16gg> 16cc>\	16ddd# 16aa/	.
16gg>JJ 16b>\	16dddnJJ 16aa/	.
16gg>LL 16b>\	16dddLL 16aa/	.
16gg> 16cc>\	16ddd#X 16aa/	.
16gg> 16cc>\	16ddd# 16aa/	.
!	!LO:TX:t=P:problem=dashed barline	!
16gg>JJ 16cc#X>\	16eeeJJ 16aa/	.
=25	=25	=25
12gg>L 12cc#>\	12eeeL 12aa/	.
12gg> 12ccn>\	12ddd#X 12aa/	.
12gg> 12b>\	12dddn 12aa/	.
12gg> 12b-X>\	12ccc# 12aa/	.
12gg> 12b->\	12cccn 12aa/	.
12a>J 12g#X>\	12bbJ 12aa/	.
*clefG2	*	*
12aL 12gn/	12bb-XL 12aa\	.
12a 12f#/	12aa\ 12aa	.
12a 12fn/	12aa 12gg#X\	.
12a 12e/	12aa 12ggn\	.
12a 12d#X/	12aa 12ff#X\	.
!	!LO:TX:t=P:problem=dashed barline	!
12aJ 12dn/	12aaJ 12ffn\	.
=26	=26	=26
12gL 12c# 12A/	12aaL 12ee\	.
12g 12cn 12A/	12aa 12dd#X\	.
12g 12B 12A/	12aa 12ddn\	.
12g 12B-X 12A/	12aa 12cc#\	.
12g 12A/ 12A	12aa 12ccn\	.
12AJ 12A 12G#X/	12aaJ 12b\	.
*clefF4	*	*
12AL 12Gn\	12aaL 12b-X\	.
12A 12F#\	12a\	.
12A 12Fn\	12a 12g#X\	.
12A 12E\	12a 12gn\	.
12A 12D#X\	12a 12f#\	.
12AJ 12Dn\	12aJ 12fn\	.
!!LO:LB:g=original
=27	=27	=27
8G 8C# 8AA\	16aLL 16e\	.
.	16aJJ 16e\	.
8a>L 8e>\	8b-XL 8g/	.
8a> 8e>\	8b- 8g/	.
8a>J 8e>\	8b-J 8g/	.
8a>L 8e>\	8b-L 8g/	.
8a> 8e>\	8b- 8g/	.
8a> 8e>\	8b- 8g/	.
8a>J 8e>\	8b-J 8g/	.
8a>L 8d#X>\	8b-XL 8f#/	.
8a> 8d>#\	8b- 8f#/	.
8a> 8d#>\	8b- 8f#/	.
8a>J 8d#>\	8b-J 8f#/	.
8a>L 8dn>\	8b-L 8fn/	.
8a> 8d>\	8b- 8f/	.
8a> 8d>\	8b- 8f/	.
8a>J 8d>\	8b-J 8f/	.
=28	=28	=28
8C# 8AA\	16aLL 16c# 16A\	.
.	16a\JJ	.
8a>L 8e>\	8b-XL 8g/	.
8a> 8e>\	8b- 8g/	.
8a>J 8e>\	8b-J 8g/	.
8a>L 8e>\	8b-L 8g/	.
8a> 8e>\	8b- 8g/	.
8a> 8e>\	8b- 8g/	.
8a>J 8e>\	8b-J 8g/	.
8a>L 8d#X>\	8b-L 8f#/	.
8a> 8d#>\	8b- 8f#/	.
8a> 8d#>\	8b- 8f#/	.
8a>J 8d#>\	8b-J 8f#/	.
8a>L 8dn>\	8b-L 8fn/	.
8a> 8d>\	8b- 8f/	.
8a> 8d>\	8b- 8f/	.
8a>J 8d>\	8b-J 8f/	.
!!LO:PB:g=original
=29	=29	=29
8C# 8AAA\	16aLL 16c# 16A\	.
.	16aJJ 16c# 16A\	.
!LO:TX:t=P:notes-position:problem	!	!
16a> 16c#> 16A>\	16ee 16g/	<
8a>L 8c#> 8A>\	8eeL 8g/	.
8a> 8c#> 8A>\	8ee 8g/	.
8a> 8c#> 8A>\	8ee 8g/	.
8a>J 8c#> 8A>\	8eeJ 8g/	.
*tremolo	*tremolo	*
!	!LO:TX:a:i:t=tremol.	!
32a>LLL 32c#> 32A>\	32eeLLL 32g/	.
32a> 32c#> 32A>\	32ee 32g/	.
32a> 32c#> 32A>\	32ee 32g/	.
32a> 32c#> 32A>\	32ee 32g/	.
32a> 32c#> 32A>\	32ee 32g/	[
32a> 32c#> 32A>\	32ee 32g/	.
32a> 32c#> 32A>\	32ee 32g/	.
32a> 32c#> 32A>\	32ee 32g/	>
32a> 32c#> 32A>\	32ee 32g/	.
32a> 32c#> 32A>\	32ee 32g/	.
32a> 32c#> 32A>\	32ee 32g/	.
32a> 32c#> 32A>\	32ee 32g/	.
32a> 32c#> 32A>\	32ee 32g/	.
32a> 32c#> 32A>\	32ee 32g/	.
32a> 32c#> 32A>\	32ee 32g/	.
32a>JJJ 32c#> 32A>\	32eeJJJ 32g/	.
*Xtremolo	*Xtremolo	*
=30	=30	=30
4a> 4c#> 4A>\	4aa 4ee 4g/	]
!	!LO:TX:a:t=md	!
4ryy	4eee/	.
!	!LO:TX:a:t=md	!
2ryy	4aaa/	.
*	*8va	*
!	!LO:TX:b:t=ms	!
.	4eeee\	.
=31	=31	=31
!	!LO:TX:b:t=ms	!
1ryy	4aaaa\	.
*	*X8va	*
.	4r	.
!	!LO:N:vis=1	!
.	2rb;	.
!!LO:LB:g=original
=32||	=32||	=32||
*^	*	*
!	!	!LO:TX:a:Bi:t=Moderato	!LO:DY:rj:t=p.
2f#/	1D	4r	p
!	!	!LO:TX:b:i:t=il canto distinto	!
.	.	4aa 4dd\	.
.	.	8qccc#/	.
4f#/	.	4bb 4dd\	.
4f#/	.	4aa 4dd\	.
=33	=33	=33	=33
2e/	2A\	4r	.
.	.	4aa 4cc#\	.
2e/	2A#X\	8ff#L 8cc#\	.
.	.	8gg\	.
.	.	8qbb/	.
.	.	8aa 8cc#\	.
.	.	8gg\J	.
=34	=34	=34	=34
2d/	1BB	4r	.
.	.	4ff# 4b\	.
.	.	8qaa/	.
4e/	.	4gg 4b\	.
4d/	.	4ff# 4b\	.
=35	=35	=35	=35
2c#/	2F#\	4r	.
.	.	4ff# 4a#X\	.
2c#/	2F#\	8dd#XL 8a#\	.
.	.	8ee\	.
.	.	8qgg/	.
.	.	8ff# 8a#\	.
.	.	8ee\J	.
=36	=36	=36	=36
*	*2\left	*	*
2B/	2GG\	4r	.
.	.	4dd 4b\	.
.	.	8qff#/	.
4c#/	2G\	4ee 4b-X\	.
4d/	.	4dd 4b-\	.
=37	=37	=37	=37
*	*2\right	*	*
2A/	2F#\	4r	.
.	.	8ddL 8d\	.
.	.	8cc#X\J	.
2A/	2F#\	8ddL 8d\	.
.	.	8a\	.
.	.	8qcc#/	.
.	.	8b 8d\	.
.	.	8a\J	.
!!LO:LB:g=original
=38	=38	=38	=38
2G/	1AA	4r	.
.	.	4e 4d/	.
4A/	.	12f#L 12c#/	.
.	.	12d/	.
.	.	12c#/J	.
4G/	.	8eL 8B/	.
.	.	8B-X/J	.
=39	=39	=39	=39
2F#/	1DD	4r	.
.	.	4d 4A/	.
2F#/	.	8dL 8G#X/	.
.	.	8A/	.
.	.	8qc#\	.
.	.	8d 8B/	.
.	.	8A/J	.
=40	=40	=40	=40
2f#/	1D	4r	.
.	.	4aa 4dd\	.
.	.	8qccc#/	.
4f#/	.	4bb 4dd\	.
4f#/	.	4aa 4dd\	.
=41	=41	=41	=41
2e/	2A\	4r	.
.	.	4aa 4cc#\	.
2e/	2A#X\	8ff#L 8cc#\	.
.	.	8gg\	.
.	.	8eee: 8aa: 8cc#:\	.
.	.	8gg\J	.
=42	=42	=42	=42
2d/	1BB	4r	.
.	.	4ff# 4b\	.
.	.	8qaa/	.
4e/	.	4gg 4b\	.
4d/	.	4ff# 4b\	.
=43	=43	=43	=43
2c#/	2F#\	4r	.
.	.	4ff# 4a#X/	.
2c#/	2F#\	8dd#XL 8a#/	.
.	.	8ee/	.
.	.	8ccc#: 8ff#: 8a#:/	.
.	.	8ee/J	.
!!LO:LB:g=original
=44	=44	=44	=44
2B/	2GG\	4r	.
.	.	4dd 4b\	.
.	.	8qff#/	.
4c#/	2G\	4ee 4b-X\	.
4d/	.	4dd 4b-\	.
=45	=45	=45	=45
2A/	2F# 2AA\	4r	.
.	.	8dddL 8dd\	.
.	.	8ccc#J 8dd\	.
2A/	2F#\	8cccnL 8dd\	.
.	.	8bb 8dd\	.
.	.	8bb-X 8dd\	.
.	.	8aaJ 8dd\	.
=46	=46	=46	=46
2G/	1AA	4r	.
.	.	4ee 4dd\	.
4A/	.	12ff#L 12cc#\	.
.	.	12dd\	.
.	.	12cc#\J	.
4G/	.	8eeL 8b\	.
.	.	8b-X\J	.
=47	=47	=47	=47
2F#/	1DD	4r	.
.	.	4dd 4a 4d\	.
2F#/	.	8ddL 8g#X 8d\	.
.	.	8a\	.
.	.	8qcc#/	.
.	.	8dd 8b 8d\	.
.	.	8a\J	.
*v	*v	*	*
=48!|:	=48!|:	=48!|:
*>B	*>B	*>B
*	*tremolo	*
2FF# 2FFF#/	32f#/LLL	<
.	32F#/	.
.	32f#/	.
.	32F#/	.
.	32f#/	.
.	32F#/	.
.	32f#/	.
.	32F#/	.
.	32f#/	.
.	32F#/	.
.	32f#/	.
.	32F#/	.
.	32f#/	.
.	32F#/	.
.	32f#/	.
.	32F#/JJJ	.
4GG#X 4GGG#X/	32f#/LLL	.
.	32F#/	.
.	32f#/	.
.	32F#/	.
.	32f#/	.
.	32F#/	.
.	32f#/	.
.	32F#/	.
4AA#X 4AAA#X/	32f#/	.
.	32F#/	.
.	32f#/	.
.	32F#/	.
.	32f#/	.
.	32F#/	.
.	32f#/	.
.	32F#/JJJ	.
=49	=49	=49
2BB 2FF# 2BBB/	32f#/LLL	.
.	32F#/	.
.	32f#/	.
.	32F#/	.
.	32f#/	.
.	32F#/	.
.	32f#/	.
.	32F#/	.
.	32f#/	.
.	32F#/	.
.	32f#/	.
.	32F#/	.
.	32f#/	.
.	32F#/	.
.	32f#/	.
.	32F#/JJJ	.
2BB 2FF# 2BBB/	32f#/LLL	.
.	32F#/	.
.	32f#/	.
.	32F#/	.
.	32f#/	.
.	32F#/	.
.	32f#/	.
.	32F#/	.
.	32f#/	.
.	32F#/	.
.	32f#/	.
.	32F#/	.
.	32f#/	.
.	32F#/	.
.	32f#/	.
.	32F#/JJJ	[[
!!LO:LB:g=original
=50	=50	=50
4C# 4FF# 4CC#/	32f#/LLL	.
.	32F#/	.
.	32f#/	.
.	32F#/	.
.	32f#/	.
.	32F#/	.
!	!	!LO:HP:t=cresc
.	32f#/	<
.	32F#/	.
4C# 4FF# 4CC#/	32f#/	.
.	32F#/	.
.	32f#/	.
.	32F#/	.
.	32f#/	.
.	32F#/	.
.	32f#/	.
.	32F#/JJJ	.
4BB 4FF# 4BBB/	32f#/LLL	.
.	32F#/	.
.	32f#/	.
.	32F#/	.
.	32f#/	.
.	32F#/	.
.	32f#/	.
.	32F#/	.
4C# 4FF# 4CC#/	32f#/	.
.	32F#/	.
.	32f#/	.
.	32F#/	.
.	32f#/	.
.	32F#/	.
.	32f#/	.
.	32F#/JJJ	.
*	*Xtremolo	*
=51	=51	=51
*	*rscale:1/2	*
2D 2BB 2GG#X 2EE#X 2DD/	24g#XLLL 24e#X 24d 24B 24G#X/	.
.	24B/	.
!	!	!LO:DY:rj:t=f.
.	24d/	f
.	24e#/	.
.	24g#/	.
.	24b/	.
.	24dd/	.
.	24ee#X/	.
.	24gg#X/	.
.	24bb/	.
.	24ddd/	.
.	24eee#X/JJJ	.
2BB 2BBB/	26ggg#X/LLL	.
.	26eee#/	.
.	26ddd/	.
.	26bb/	.
.	26gg#/	.
.	26ee#/	.
.	26dd/	.
.	26b/	.
.	26g#/	.
.	26e#/	.
.	26d/	.
.	26B/	.
.	26G#/JJJ	.
*	*rscale:1	*
=52	=52	=52
*	*tremolo	*
2AA 2AAA/	32a/LLL	<
.	32A/	.
.	32a/	.
.	32A/	.
.	32a/	.
.	32A/	.
.	32a/	.
.	32A/	.
.	32a/	.
.	32A/	.
.	32a/	.
.	32A/	.
.	32a/	.
.	32A/	.
.	32a/	.
.	32A/JJJ	.
4BB 4BBB/	32a/LLL	.
.	32A/	.
.	32a/	.
.	32A/	.
.	32a/	.
.	32A/	.
.	32a/	.
.	32A/	.
4C# 4CC#/	32a/	.
.	32A/	.
.	32a/	.
.	32A/	.
.	32a/	.
.	32A/	.
.	32a/	.
.	32A/JJJ	.
=53	=53	=53
2D 2AA 2DD/	32a/LLL	.
.	32A/	.
.	32a/	.
.	32A/	.
.	32a/	.
.	32A/	.
.	32a/	.
.	32A/	.
.	32a/	.
.	32A/	.
.	32a/	.
.	32A/	.
.	32a/	.
.	32A/	.
.	32a/	.
.	32A/JJJ	.
*	*rep	*
2D 2AA 2DD/	32a/LLL	.
.	32A/	.
.	32a/	.
.	32A/	.
.	32a/	.
.	32A/	.
.	32a/	.
.	32A/	.
.	32a/	.
.	32A/	.
.	32a/	.
.	32A/	.
.	32a/	.
.	32A/	.
.	32a/	.
.	32A/JJJ	[[
*	*Xrep	*
=54	=54	=54
4E 4AA 4EE/	32a/LLL	.
.	32A/	.
.	32a/	.
.	32A/	.
.	32a/	.
.	32A/	.
.	32a/	.
.	32A/	.
4E 4EE/	32a/	.
.	32A/	.
.	32a/	.
.	32A/	.
.	32a/	.
.	32A/	.
.	32a/	.
.	32A/JJJ	.
4A 4AA/	32cc#LLL 32a/	.
.	32c#/	.
.	32cc# 32a/	.
.	32c#/	.
.	32cc# 32a/	.
.	32c#/	.
.	32cc# 32a/	.
.	32c#/	.
4G 4GG/	32cc# 32a/	.
.	32c#/	.
.	32cc# 32a/	.
.	32c#/	.
.	32cc# 32a/	.
.	32c#/	.
.	32cc# 32a/	.
.	32c#/JJJ	.
*	*Xtremolo	*
!!LO:LB:g=original
=55	=55	=55
!	!	!LO:DY:rj:t=ff.
2F# 2C# 2AA#X 2FF#;\	2ff# 2cc# 2a#X 2f#;\	ff
16FFF#\LL	20FF#</LL	.
.	20EE#X</	.
16EEE#X\J	.	.
.	20FF#</	.
8FFF#\J	.	.
.	20FF#</	.
.	20F#</JJ	.
24FF#\LL	24F#</LL	.
24FF#\	24F#</	.
24EE#X\J	24E#X</	.
8FF#\J	24F#</	.
.	24F#</	.
.	24f#</JJ	.
24F#\LL	24f#\LL	.
24F#\	24f#\	.
24E#X\J	24e#X\	.
8F#\J	24f#\	.
.	24f#\	.
.	24ff#\JJ	.
*clefG2	*	*
24f#/LL	24ff#\LL	.
24f#/	24ff#\	.
24e#X/J	24ee#X\	.
8f#/J	24ff#\	.
.	24ff#\	.
.	24fff#\JJ	.
*	*8va	*
24ff#\LL	24fff#\LL	.
24ff#\	24fff#\	.
24ee#X\J	24eee#X\	.
8ff#\J	24fff#\	.
.	24fff#\	.
.	24ffff#\JJ	.
*tremolo	*tremolo	*
!	!LO:TX:b:t=ms.	!
32ee#X>LLL 32cc#> 32a#X>\	32ffff#LLL 32cccc# 32aaa#X 32fff#/	.
32ee#> 32cc#> 32a#>\	32ffff# 32cccc# 32aaa# 32fff#/	.
32ee#> 32cc#> 32a#>\	32ffff# 32cccc# 32aaa# 32fff#/	.
32ee#> 32cc#> 32a#>\	32ffff# 32cccc# 32aaa# 32fff#/	.
32ee#> 32cc#> 32a#>\	32ffff# 32cccc# 32aaa# 32fff#/	.
32ee#> 32cc#> 32a#>\	32ffff# 32cccc# 32aaa# 32fff#/	.
32ee#> 32cc#> 32a#>\	32ffff# 32cccc# 32aaa# 32fff#/	.
32ee#> 32cc#> 32a#>\	32ffff# 32cccc# 32aaa# 32fff#/	.
32ee#> 32cc#> 32a#>\	32ffff# 32cccc# 32aaa# 32fff#/	.
32ee#> 32cc#> 32a#>\	32ffff# 32cccc# 32aaa# 32fff#/	.
32ee#> 32cc#> 32a#>\	32ffff# 32cccc# 32aaa# 32fff#/	.
32ee#> 32cc#> 32a#>\	32ffff# 32cccc# 32aaa# 32fff#/	.
32ee#> 32cc#> 32a#>\	32ffff# 32cccc# 32aaa# 32fff#/	.
32ee#> 32cc#> 32a#>\	32ffff# 32cccc# 32aaa# 32fff#/	.
32ee#> 32cc#> 32a#>\	32ffff# 32cccc# 32aaa# 32fff#/	.
32ee#>JJJ 32cc#> 32a#>\	32ffff#JJJ 32cccc# 32aaa# 32fff#/	.
*Xtremolo	*Xtremolo	*
24ee#X>LL 24cc#> 24a#>\	24ffff#LL 24cccc# 24aaa#X 24fff#/	.
24ee#> 24cc#> 24a#>\	24cccc# 24aaa# 24fff#/	.
24ee#>JJ 24cc#> 24a#>\	24cccc#JJ 24aaa# 24fff#/	.
24b#X>LL 24a#> 24f#>\	24cccc#LL 24aaa# 24fff#/	.
24b#> 24a#> 24f#>\	24aaa# 24fff# 24ccc#/	.
24b#>JJ 24a#> 24f#>\	24aaa#JJ 24fff# 24ccc#/	.
!!LO:LB:g=original
24g##X>LL 24f#X> 24c#X>\	24aaa#XLL 24fff#X 24ccc#X/	.
24g##> 24f#> 24c#>\	24fff# 24ccc# 24aa#X/	.
24g##>JJ 24f#> 24c#>\	24fff#JJ 24ccc# 24aa#/	.
24e#X>LL 24c#> 24A#X>\	24fff#LL 24ccc# 24aa#/	.
24e#> 24c#> 24A#>\	24ccc# 24aa# 24ff#/	.
24e#>JJ 24c#> 24A#>\	24ccc#JJ 24aa# 24ff#/	.
*	*X8va	*
!	!LO:TX:a:t=loco	!
24b#X>LL 24a#X> 24f#>\	24ccc#XLL 24aa# 24ff#/	.
!	!	!LO:HP:t=diminuendo.
24b#> 24a#> 24f#>\	24aa# 24ff# 24cc#/	>
24b#>JJ 24a#> 24f#>\	24aa#JJ 24ff# 24cc#/	.
24g##X>LL 24f#> 24c#>\	24aa#LL 24ff# 24cc#/	.
24g##> 24f#> 24c#>\	24ff# 24cc# 24a#/	.
24g##>JJ 24f#> 24c#>\	24ff#JJ 24cc# 24a#/	.
24e#X>LL 24c#> 24A#X>\	24ff#LL 24cc# 24a#/	.
24e#> 24c#> 24A#>\	24ff# 24cc# 24a#/	.
24e#>JJ 24c#> 24A#>\	24ff#JJ 24cc# 24a#/	.
24e#>LL 24c#> 24A#>\	24ff#LL 24cc# 24a#/	.
24e#> 24c#> 24A#>\	24ff# 24cc# 24a#/	.
24e#>JJ 24c#> 24A#>\	24ff#JJ 24cc# 24a#/	.
16e#X>: 16c#>: 16A#>:\	16ff#: 16cc#: 16a#X: 16f#:/	.
16ryy	16r	.
16ryy	16r;	.
.	8qff#/	.
*	*tuplet	*
!	!LO:TUP:a:problem=klamra łukowa	!
2ryy	6ff#\	.
!	!	!LO:DY:rj:t=p.
.	6gg\	p
.	6gg#X\	.
!!LO:PB:g=original
=56	=56	=56
*>B1	*>B1	*>B1
*clefF4	*	*
*^	*	*
!	!	!LO:TUP:a:problem=klamra łukowa	!LO:DY:rj:t=p.
2f#/	1D	6r	p
.	.	6aa 6dd\	.
.	.	6gg#X\	.
!	!	!LO:TUP:a:problem=klamra łukowa	!
4f#/	.	6aa 6dd\	.
.	.	8qccc#/	.
.	.	6bb\	.
4f#/	.	.	.
.	.	6aa 6dd\	.
=57	=57	=57	=57
!	!	!LO:TUP:a:problem=klamra łukowa	!
2e/	2A\	6r	.
.	.	6aa 6cc#\	.
.	.	6b#X\	.
2e/	2A#X\	8ff#L 8cc#\	.
.	.	8gg\	.
.	.	8qbb/	.
.	.	8aa 8cc#\	.
.	.	8gg\J	.
=58	=58	=58	=58
!	!	!LO:TUP:a:problem=klamra łukowa	!
2d/	1BB	6r	.
.	.	6ff# 6b\	.
.	.	6ee#X\	.
!	!	!LO:TUP:a:problem=klamra łukowa	!
4e/	.	6ff# 6a#X\	.
.	.	8qaa/	.
.	.	6gg\	.
4d/	.	.	.
.	.	6ff# 6b\	.
=59	=59	=59	=59
!	!	!LO:TUP:a:problem=klamra łukowa	!
2c#/	2F#\	6r	.
.	.	6ff# 6a#X\	.
.	.	6g##X\	.
2c#/	2F#\	8dd#XL 8a#\	.
.	.	8ee\	.
.	.	8qgg/	.
.	.	8ff# 8a#\	.
.	.	8ee\J	.
=60	=60	=60	=60
!	!	!LO:TUP:a:problem=klamra łukowa	!
2B/	2GG\	6r	.
.	.	6cc# 6b\	.
.	.	6dd\	.
!	!	!LO:TUP:a:problem=klamra łukowa	!
4c#/	2G\	6ff# 6b-X\	.
.	.	6ee\	.
4d/	.	.	.
.	.	6dd 6b-\	.
=61	=61	=61	=61
*	*2\left	*	*
!	!	!LO:TUP:a:problem=klamra łukowa	!
2A/	2F# 2AA\	6r	.
.	.	6dd 6d\	.
.	.	6cc#\	.
2A/	2F#\	8ddL 8d\	.
.	.	8a\	.
.	.	8qcc#/	.
.	.	8b 8d\	.
.	.	8a\J	.
!!LO:LB:g=original
=62	=62	=62	=62
!	!	!LO:TUP:a:problem=klamra łukowa	!
2G/	1AA	6r	.
.	.	6e 6d/	.
.	.	6e 6B/	.
!	!	!LO:TUP:b:problem=klamra łukowa	!
4A/	.	12f#L 12c#/	.
.	.	12d/	.
.	.	12c#/J	.
4G/	.	8eL 8B/	.
.	.	8B-X/J	.
=63	=63	=63	=63
*	*	*Xtuplet	*
2F#/	1DD	6r	.
.	.	6d 6B-X/	.
.	.	6A/	.
2F#/	.	8dL 8G#X/	.
.	.	8A/	.
.	.	8qc#\	.
.	.	8d 8B-/	.
.	.	8A/J	.
=64:|!	=64:|!	=64:|!	=64:|!
*>B2	*>B2	*>B2	*>B2
*	*	*tuplet	*
!	!	!LO:TUP:a:problem=klamra łukowa	!
2f#/	1D	6r	.
.	.	6aa 6dd\	.
.	.	6gg#X\	.
!	!	!LO:TUP:a:problem=klamra łukowa	!
4f#/	.	6aa 6dd\	.
.	.	8qccc#/	.
.	.	6bb\	.
4f#/	.	.	.
.	.	6aa 6dd\	.
=65	=65	=65	=65
!	!	!LO:TUP:a:problem=klamra łukowa	!
2e/	2A\	6r	.
.	.	6aa 6cc#\	.
.	.	6b#X\	.
2e/	2A#X\	8ff#L 8cc#\	.
.	.	8gg\	.
.	.	8eee: 8aa: 8cc#:\	.
.	.	8gg\J	.
=66	=66	=66	=66
!	!	!LO:TUP:a:problem=klamra łukowa	!
2d/	1BB	6r	.
.	.	6ff# 6b\	.
.	.	6ee#X\	.
!	!	!LO:TUP:a:problem=klamra łukowa	!
4e/	.	6ff# 6a#X\	.
.	.	8qaa/	.
.	.	6gg\	.
4d/	.	.	.
.	.	6ff# 6b\	.
=67	=67	=67	=67
*	*2\right	*	*
!	!	!LO:TUP:a:problem=klamra łukowa	!
2c#/	2F#\	6r	.
.	.	6ff# 6a#X\	.
.	.	6g##X/	.
2c#/	2F#\	8dd#XL 8a#\	.
.	.	8ee\	.
.	.	8ccc#: 8ff#: 8a#:\	.
.	.	8ee\J	.
!!LO:LB:g=original
=68	=68	=68	=68
*>C	*>C	*>C	*>C
!	!	!LO:TUP:a:problem=klamra łukowa	!
2B/	2GG\	6r	.
.	.	6cc# 6b\	.
.	.	6dd\	.
*	*2\left	*	*
!	!	!LO:TUP:a:problem=klamra łukowa	!
4c#/	2G\	6ff# 6b-X\	.
.	.	6ee\	.
4d/	.	.	.
.	.	6dd 6b-\	.
=69	=69	=69	=69
2A/	2F# 2AA\	4r	.
.	.	8dddL 8dd\	.
.	.	8ccc#J 8dd\	.
2f#/	2A\	8cccnL 8dd\	.
.	.	8bb 8dd\	.
.	.	8bb-X 8dd\	.
.	.	8aaJ 8dd\	.
=70	=70	=70	=70
!	!	!LO:TUP:a:problem=klamra łukowa	!
4g/	2A\	6r	.
.	.	6aa 6ee\	.
4c#/	.	.	.
.	.	6ff#\	.
!	!	!LO:TUP:a:problem=klamra łukowa	!
4B/	2AA\	6aa 6gg 6g\	.
.	.	6ff#\	.
4c#/	.	.	.
.	.	6aa 6ee 6g\	.
*v	*v	*	*
=71	=71	=71
!	!LO:TUP:a:problem=klamra łukowa	!
6d 6D\	6aa 6dd 6f#\	.
6aa>\	6fff# 6ddd/	.
6ff#>\	6ddd 6aa/	.
!	!LO:TUP:a:problem=klamra łukowa	!
!	!LO:TX:Bi:t=sempre dim_:problem=dynamics with extention lines	!LO:HP:t=sempre dim_
3dd>\	6bb 6ff#/	>
.	6bb-X 6ff#/	.
6dd>\	6aa 6ff#/	.
=72	=72	=72
*2\right	*	*
*^	*	*
!	!	!LO:TUP:a:problem=klamra łukowa	!
4g/	2A\	6r	.
.	.	6aa 6ee\	.
4c#/	.	.	.
.	.	6ff#\	.
*	*2\left	*	*
!	!	!LO:TUP:a:problem=klamra łukowa	!
4B/	2AA\	6aa 6gg 6g\	.
.	.	6ff#\	.
4c#/	.	.	.
.	.	6aa 6ee 6g\	.
*v	*v	*	*
=73	=73	=73
!	!LO:TUP:a:problem=klamra łukowa	!
6d 6D\	6aa 6dd 6f#\	.
*	*8va	*
6dd>\	6aaa 6fff#/	.
6a>\	6fff# 6ddd/	.
*	*X8va	*
!!LO:LB:g=original
8ff#>\	8dddL 8aa/	]
4dd>\	8bb [>8ff#/	.
.	8bb-X 8ff#]/	.
8dd>\	8aaJ 8ff#/	.
=74	=74	=74
*^	*	*
!	!	!LO:TUP:a:problem=klamra łukowa	!
4g/	2A\	6r	.
.	.	6aa 6ee\	.
4c#/	.	.	.
.	.	6ff#\	.
!	!	!LO:TUP:a:problem=klamra łukowa	!
4B/	2AA\	6aa 6gg 6g\	.
.	.	6ff#\	.
4c#/	.	.	.
.	.	6aa 6ee 6g\	.
*v	*v	*	*
=75	=75	=75
!	!LO:TUP:a:problem=klamra łukowa	!
6d 6D\	6aa 6dd 6f#\	.
*	*8va	*
6dd>\	6dddd 6aaa 6fff#/	.
!	!	!LO:DY:rj:t=pp.
6dd>\	6bbb 6ggg#X 6eee#X/	pp
!	!LO:TUP:a:problem=klamra łukowa	!
6dd>\	6aaa 6fff#/	.
6a>\	6fff# 6ddd/	.
6g>\	6ddd 6bb-X/	.
*	*X8va	*
=76	=76	=76
!	!LO:TUP:a:problem=klamra łukowa	!
6ff#> 6dd>\	6ddd 6aa/	.
6ff#> 6dd>\	6ddd 6aa/	.
6ee#X> 6dd>\	6bb 6gg#X/	.
!	!LO:TUP:a:problem=klamra łukowa	!
6dd>\	6aa 6ff#/	.
6a>\	6ff# 6dd/	.
6g>\	6dd 6b-X/	.
=77	=77	=77
*^	*	*
!	!	!LO:TUP:a:problem=klamra łukowa	!
6f#>\	1d>	6dd 6a/	.
6e#X>\	.	6b 6g#X/	.
6f#>\	.	6dd 6a/	.
!	!	!LO:TUP:a:problem=klamra łukowa	!
6e#>\	.	6b 6g#/	.
6f#>\	.	6dd 6a/	.
6e#>\	.	6b 6g#/	.
*v	*v	*	*
!!LO:LB:g=original
=78	=78	=78
!	!LO:TX:b:i:t=quasi niente	!
1f#: 1d: 1A: 1F#: 1D: 1DD:	1aa: 1dd: 1a:	.
=79||	=79||	=79||
*k[f#c#g#d#a#]	*k[f#c#g#d#a#]	*
*M2/4	*M2/4	*
!	!LO:TX:a:Bi:t=Allegretto.	!
32FF#/LLL	16ryy	.
32FF#/JJJ	.	f
=80	=80	=80
!LO:TX:a:i:t=quasi tamburo	!	!
8FF#'/	2ryy	.
16r	.	.
32FF#/LLL	.	.
32FF#/JJJ	.	.
8FF#'/	.	.
16r	.	.
32FF#/LLL	.	.
32FF#/JJJ	.	.
=81	=81	=81
16FF#'/LL	2ryy	.
16FF#'/	.	.
16FF#'/	.	.
16FF#'/JJ	.	.
16FF#'/LL	.	.
16FF#'/	.	.
16FF#'/	.	.
16FF#'/JJ	.	.
=82	=82	=82
8FF#'/L	2ryy	.
8FF#'/	.	.
8FF#'/	.	.
8FF#'/J	.	.
=83	=83	=83
8FF#'/	4ryy	.
8r	.	.
8r	8ryy	.
!	!	!LO:DY:rj
16r	16ryy	pp
32c#LLL 32F#\	32f#LLL 32A#X/	.
32c#JJJ 32F#\	32f#JJJ 32A#/	.
!!LO:LB:g=original
=84	=84	=84
!	!LO:TX:t=P:problem=brak a# przy kluczu	!
8c# 8F#\	8f# 8A#X/	.
16r	16r	.
32c#LLL 32F#\	32f#LLL 32A#/	.
32c#JJJ 32F#\	32f#JJJ 32A#/	.
8c# 8F#\	8f# 8A#/	.
16r	16r	.
32c#LLL 32F#\	32f#LLL 32A#/	.
32c#JJJ 32F#\	32f#JJJ 32A#/	.
=85	=85	=85
*2\right	*	*
*tremolo	*tremolo	*
16c#LL 16F#\	16f#LL 16A#X/	.
16c# 16F#\	16f# 16A#/	.
16c# 16F#\	16f# 16A#/	.
16c# 16F#\	16f# 16A#/	.
16c# 16F#\	16f# 16A#/	.
16c# 16F#\	16f# 16A#/	.
16c# 16F#\	16f# 16A#/	.
16c#JJ 16F#\	16f#JJ 16A#/	.
*Xtremolo	*Xtremolo	*
=86	=86	=86
8c#L 8F#'\	8f#L 8A#X'/	.
8c# 8F#'\	8f# 8A#'/	.
8c# 8F#'\	8f# 8A#'/	.
8c#J 8F#'\	8f#J 8A#'/	.
=87	=87	=87
8c# 8F#'\	8f# 8A#X'/	.
8r	8r	.
4r	8r	.
.	8ff#\	.
=88	=88	=88
4r	16ff#'\LL	p
.	16ee#X'\	.
.	16gg#X'\	.
.	16ff#'\JJ	.
*clefG2	*	*
16f#'/LL	8cc#\	.
16e#X'/	.	.
16g#X'/	8r	.
16f#'/JJ	.	.
=89	=89	=89
8c#/	16ff#\LL	.
.	16ee#X\	.
8r	16gg#X\	.
.	16ff#\JJ	.
!!LO:LB:g=original
16f#/LL	8cc##X\	.
16e#X/	.	.
16g#X/	8r	.
16f#/JJ	.	.
=90	=90	=90
8c##X/	16ff#\LL	.
.	16ee#X\	.
8r	16gg#X\	.
.	16ff#\JJ	.
16f#/LL	8dd#X\	.
16e#X/	.	.
16g#X/	8r	.
16f#/JJ	.	.
=91	=91	=91
8d#X/	16ff#\LL	.
.	16ee#X\	.
8r	16gg#X\	.
.	16ff#\JJ	.
16f#/LL	8een\	.
16e#X/	.	.
16g#X/	8r	.
16f#/JJ	.	.
=92	=92	=92
8en/	16ff#\LL	.
.	16ee#X\	.
!	!LO:TX:Bi:t=molto crescendo.:problem=dynamics with extention lines	!LO:HP:t=molto crescendo.
8r	16gg#X\	<
.	16ff#\JJ	.
16f#/LL	16ff#\LL	.
16e#X/	16ee#\	.
16g#X/	16gg#\	.
16f#/JJ	16ff#\JJ	.
=93	=93	=93
*clefF4	*	*
16F#\LL	16ff#LL 16f#\	.
16E#X\	16ee#X 16e#X\	.
16G#X\	16gg#X 16g#X\	.
16F#\JJ	16ff#JJ 16f#\	.
16F#LL 16FF#\	16ff#LL 16f#\	.
16E# 16EE#X\	16ee# 16e#\	.
16G#X 16GG#X\	16gg# 16g#\	.
16F#JJ 16FF#\	16ff#JJ 16f#\	[[
=94	=94	=94
*	*rep	*
16FF#LL 16FFF#/	16ff#LL 16f#\	.
16EE#X 16EEE#X/	16ee#X 16e#X\	.
16GG# 16GGG#/	16gg#X 16g#X\	.
16FF#JJ 16FFF#/	16ff#JJ 16f#\	.
*rep	*	*
16FF#LL 16FFF#/	16ff#LL 16f#\	.
16EE# 16EEE#/	16ee# 16e#\	.
16GG# 16GGG#/	16gg# 16g#\	.
16FF#JJ 16FFF#/	16ff#JJ 16f#\	.
*Xrep	*Xrep	*
!!LO:PB:g=original
=95||	=95||	=95||
*8ba	*	*
!LO:TX:t=P:problem=mixed beam	!LO:TX:a:i:t=fieramente	!LO:DY:t=f.
8BBBL 8BBBB/	16ff#LL 16f#\	f
.	16ee#X 16e#X\	.
*X8ba	*	*
8BJ 8F# 8D#\	16gg# 16g#\	.
.	16ff#JJ 16f#\	.
!LO:TX:t=P:problem=mixed beam	!	!
8FF#L 8FFF#/	16eenLL 16en\	.
.	16dd# 16d#\	.
8A#J 8F# 8C#\	16ee 16e\	.
.	16cc#JJ 16c#\	.
=96	=96	=96
8BBL 8BBB/	8bL 8d# 8B/	.
8F#J 8D# 8BB/	8b 8d# 8B/	.
4F# 4D# 4BB/	8b 8d# 8B/	.
.	8f#J 8F#/	.
=97	=97	=97
8BBL 8BBB/	8bL 8B/	.
.	8qc#\	.
8F#J 8D# 8BB/	16.bL 16.B/	.
.	32a#JJk 32A#/	.
8D#L 8DD#/	16.bLL 16.B/	.
.	32dd#K 32d#/	.
8BJ 8F# 8D#/	16.ff# 16.f#/	.
.	32dd#JJk 32d#/	.
=98	=98	=98
!LO:TX:t=P:problem=mixed beam	!	!
8FF#L 8FFF#/	8cc#L 8c#/	.
8A#J 8F# 8C#\	8cc# 8f# 8c#/	.
4A# 4F# 4C#\	8cc# 8f# 8c#/	.
.	16dd#L 16d#/	.
.	16eeJJ 16e/	.
=99	=99	=99
!LO:TX:t=P:problem=mixed beam	!	!
8BBL 8BBB/	16ff#LL 16f#\	.
.	16ee#X 16e#X\	.
8BJ 8F# 8D#\	16gg# 16g#\	.
.	16ff#JJ 16f#\	.
!LO:TX:t=P:problem=mixed beam	!	!
8FF##XL 8FFF##X/	16eenLL 16en\	.
.	16dd# 16d#\	.
8A#J 8E 8C#\	16ee 16e\	.
.	16cc#JJ 16c#\	.
!!LO:LB:g=original
=100	=100	=100
!LO:TX:t=P:problem=mixed beam	!	!
8GG#L 8GGG#/	8bL 8d# 8B\	.
8G#J 8D# 8GG#\	8bJ 8d# 8B\	.
!LO:TX:t=P:problem=mixed beam	!LO:TUP:a:problem=klamra łukowa	!
8FF#L 8FFF#/	24b#XLL 24g# 24B#X\	.
.	24b# 24g# 24B#\	.
.	24b#J 24g# 24B#\	.
8G#J 8D# 8GG#\	8b#J 8g# 8B#\	.
=101	=101	=101
!LO:TX:t=P:problem=mixed beam	!	!
8EEL 8EEE/	8cc#L 8g# 8c#\	.
8G#J 8E 8C#\	16eeL 16e\	.
.	16cc#JJ 16c#\	.
!LO:TX:t=P:problem=mixed beam	!	!
8FF#L 8FFF#/	8a#L 8e 8A#\	.
8F#J 8E 8C#\	16cc#L 16c#\	.
.	16a#JJ 16A#\	.
=102	=102	=102
!LO:TX:t=P:problem=mixed beam	!	!
8BBL 8BBB/	8bL 8d# 8B\	.
8F#J 8D# 8BB\	8dd#J 8d#\	.
8F# 8D# 8BB\	8b 8B\	.
8r	8r	.
=103!|:	=103!|:	=103!|:
*>D	*>D	*>D
*	*Xtuplet	*
20G#\LL	20g#\LL	.
20A#\	20a#\	.
!	!	!LO:DY:rj
20G#\	20g#\	mf
20A#\	20a#\	.
20G#\JJ	20g#\JJ	.
20D#\LL	20d#\LL	.
20E\	20e\	.
20D#\	20d#\	.
20E\	20e\	.
20D#\JJ	20d#\JJ	.
=104	=104	=104
24B\LL	24b\LL	.
24c#\	24cc#\	.
24B\	24b\	.
24c#\	24cc#\	.
24B\	24b\	.
24A#\JJ	24a#\JJ	.
20G#\LL	20g#\LL	.
20A#\	20a#\	.
20G#\	20g#\	.
20A#\	20a#\	.
20G#\JJ	20g#\JJ	.
!!LO:LB:g=original
=105	=105	=105
24C#\LL	8eeL 8g#\	.
24BB#X\	.	.
24C#\	.	.
24BB#\	16eeL 16g#\	.
24C#\	.	.
.	16dd#JJ 16g#\	.
24D#\JJ	.	.
24E\LL	8cc#L 8g#\	.
24D#\	.	.
24E\	.	.
24D#\	16cc#L 16g#\	.
24E\	.	.
.	16bJJ 16g#\	.
24E#X\JJ	.	.
=106	=106	=106
8F#\	16a#\LL	.
!	!	!LO:DY:rj
.	16b\	p
8r	16cc#\	.
.	16a#\JJ	.
16A#\LL	8f#\	.
16B\	.	.
16c#\	8r	.
16A#\JJ	.	.
=107	=107	=107
8F#\	16aa#\LL	.
.	16bb\	.
8r	16ccc#\	.
.	16aa#\JJ	.
*clefG2	*	*
16a#\LL	8ff#\	.
16b\	.	.
16cc#\	8r	.
16a#\JJ	.	.
=108	=108	=108
*	*8va	*
8f#\	16aaa#\LL	.
.	16bbb\	.
8r	16cccc#\	.
.	16aaa#\JJ	.
16r	16fff#\LL	.
16fff#LL 16ccc#\	16eeee 16aaa#\	.
16fff# 16ccc#\	16eeee 16aaa#\	.
16eeeJJ 16aa#\	16cccc#JJ 16fff#\	.
=109	=109	=109
16eeeLL 16aa#\	16cccc#LL 16fff#\	.
16ccc# 16ff#\	16aaa# 16eee\	.
16ccc# 16ff#\	16aaa# 16eee\	.
16aa#JJ 16ee\	16fff#JJ 16ccc#\	.
16aa#LL 16ee\	16fff#LL 16ccc#\	.
16ff# 16cc#\	16eee 16aa#\	.
16ff# 16cc#\	16eee 16aa#\	.
16eeJJ 16a#\	16ccc#JJ 16ff#\	.
*	*X8va	*
!!LO:LB:g=original
=110	=110	=110
!	!LO:TX:Bi:t=molto crescendo_:problem=dynamics with extention lines	!LO:HP:t=molto crescendo_
16eeLL 16a#\	16ccc#LL 16ff#\	<
16cc# 16f#\	16aa# 16ee\	.
16cc# 16f#\	16aa# 16ee\	.
16a#JJ 16e\	16ff#JJ 16cc#\	.
16a#LL 16e/	16ff#LL 16cc#\	.
16f# 16c#/	16ee 16a#\	.
16f# 16c#/	16ee 16a#\	.
16eJJ 16A#/	16cc#JJ 16f#\	.
*clefF4	*	*
=111	=111	=111
16eLL 16A#\	16cc#LL 16f#/	.
16c# 16F#\	16a# 16e/	.
16c# 16F#\	16a# 16e/	.
16A#JJ 16E\	16f#JJ 16c#/	.
16A#LL 16E\	16f#LL 16c#/	.
16F# 16C#\	16e 16A#/	.
16F# 16C#\	16e 16A#/	.
16EJJ 16AA#\	16c#JJ 16F#/	.
=112	=112	=112
16FF#\LL	4r	.
16EE#X\	.	.
16GG#\	.	.
16FF#\JJ	.	.
4ryy	16F#</LL	.
.	16E#X</	.
.	16G#</	.
.	16F#</JJ	.
=113	=113	=113
16f#>\LL	4ryy	.
16e#X>\	.	.
16g#>\	.	.
16f#>\JJ	.	.
4ryy	16ff#/LL	.
.	16ee#X/	.
.	16gg#/	.
.	16ff#/JJ	.
*clefG2	*	*
=114	=114	=114
16f#/LL	16fff#LL 16ff#\	.
16e#X/	16eee#X 16ee#X\	.
16g#/	16ggg# 16gg#\	.
16f#/JJ	16fff#JJ 16ff#\	.
16f#LL 16F#/	16fff#LL 16ff#\	.
16e# 16E#X/	16eee# 16ee#\	.
16g# 16G#/	16ggg# 16gg#\	.
16f#JJ 16F#/	16fff#JJ 16ff#\	.
*clefF4	*	*
!!LO:LB:g=original
=115	=115	=115
*	*rep	*
!LO:TX:t=P:problem=brak AA# przy kluczu	!	!
16FF#LL 16FFF#/	16fff#LL 16ff#\	.
16EE#X 16EEE#X/	16eee#X 16ee#X\	.
16GG# 16GGG#/	16ggg# 16gg#\	.
16FF#JJ 16FFF#/	16fff#JJ 16ff#\	.
*rep	*	*
16FF#LL 16FFF#/	16fff#LL 16ff#\	.
16EE# 16EEE#/	16eee# 16ee#\	.
16GG# 16GGG#/	16ggg# 16gg#\	.
16FF#JJ 16FFF#/	16fff#JJ 16ff#\	[[
*Xrep	*Xrep	*
=116	=116	=116
*8ba	*	*
!LO:TX:t=P:problem=mixed beam	!	!
8BBBL 8BBBB/	16fff#LL 16ff#\	.
!	!	!LO:DY:rj:t=ff.
.	16eee#X 16ee#X\	ff
*X8ba	*	*
8f#J 8B 8D#\	16ggg# 16gg#\	.
.	16fff#JJ 16ff#\	.
!LO:TX:t=P:problem=mixed beam	!	!
8FF#L 8FFF#/	16eee#LL 16ee#\	.
.	16ddd# 16dd#\	.
8f#J 8A# 8E\	16eee# 16ee#\	.
.	16ccc#JJ 16cc#\	.
=117	=117	=117
!LO:TX:t=P:problem=mixed beam	!	!
8BBL 8BBB/	8bbL 8dd# 8b\	.
8f#J 8B 8D#\	8bb 8b\	.
4f# 4B 4D#\	8bb 8b\	.
.	8ff#J 8f#\	.
=118	=118	=118
!LO:TX:t=P:problem=mixed beam	!	!
8BBL 8BBB/	8bbL 8b\	.
.	8qcc#/	.
8f#J 8B 8D#\	16.bbL 16.b\	.
.	32aa#JJk 32a#\	.
!LO:TX:t=P:problem=mixed beam	!	!
8D#L 8DD#/	16.bbLL 16.b\	.
.	32ddd#K 32dd#\	.
8f#J 8B 8D#\	16.fff# 16.ff#\	.
.	32ddd#JJk 32dd#\	.
=119	=119	=119
8F#L 8FF#\	8ccc#L 8ff# 8cc#\	.
8f#J 8c# 8A# 8F#\	8ccc#J 8ff# 8cc#\	.
4f# 4c# 4A# 4F#\	8ccc#L 8ff# 8cc#\	.
.	16ddd#L 16dd#\	.
.	16eeeJJ 16ee\	.
!!LO:LB:g=original
=120	=120	=120
*	*8va	*
8BBL 8BBB\	16fff#LL 16ff#\	.
.	16eee#X 16ee#X\	.
8f#J 8B 8D#\	16ggg# 16gg#\	.
.	16fff#JJ 16ff#\	.
8F##XL 8FF##X\	16eee#LL 16ee#\	.
.	16ddd# 16dd#\	.
8eJ 8c# 8A# 8F##X\	16eee# 16ee#\	.
.	16ccc#JJ 16cc#\	.
*	*X8va	*
=121	=121	=121
8G#L 8GG#\	8bbL 8dd# 8b\	.
8g#J 8d# 8B 8G#\	8bbJ 8dd# 8b\	.
8F#L 8FF#\	24bb#XLL 24gg# 24b#X\	.
.	24bb# 24gg# 24b#\	.
.	24bb#J 24gg# 24b#\	.
8g#J 8d# 8B#X 8G#\	8bb#J 8gg# 8b#\	.
=122	=122	=122
8EL 8EE\	8ccc#L 8gg# 8cc#\	.
8g#J 8c# 8G#\	16eeeL 16ee\	.
.	16ccc#JJ 16cc#\	.
8F#L 8FF#\	8aa#L 8ee 8a#\	.
8f#J 8e 8A# 8F#\	16ccc#L 16cc#\	.
.	16aa#JJ 16a#\	.
=123	=123	=123
*>D1	*>D1	*>D1
8BL 8BB\	8bbL 8dd# 8b\	.
8f# 8d# 8B 8F#\	8ddd# 8dd#\	.
8f#J 8d# 8B 8F#\	8bbJ 8b\	.
8r	8r	.
=124:|!	=124:|!	=124:|!
*>D2	*>D2	*>D2
!	!LO:TX:Bi:t=poco a poco dimi_nuen_do:problem=dynamics with extention lines	!LO:HP:t=poco a poco dimi_nuen_do
16F#LL 16BB\	8bb 8dd# 8b\	>
16E#X\	.	.
16G#\	8r	.
16F#\JJ	.	.
16En\LL	4r	.
16D#\	.	.
16E\	.	.
16C#\JJ	.	.
!!LO:LB:g=original
=125	=125	=125
*>E	*>E	*>E
8F#L 8BB\	8bL 8d#\	.
.	8qcc#/	.
8BB\	16.b\L	.
.	32a#\JJk	.
8BB\	16.b\LL	.
.	32dd#\K	.
8FF#\J	16.ff#\	.
.	32dd#\JJk	.
=126	=126	=126
8A# 8FF#\	16cc#LL 16f#\	.
.	16e#X\	.
8r	16cc# 16f#\	.
.	16f#\JJ	.
16en\LL	8cc#\L	.
16d#\	.	.
16e\	16dd#\L	.
16c#\JJ	16ee\JJ	.
=127	=127	=127
8d#L 8B\	16ff#\LL	.
.	16ee#X\	.
8B'\	16gg#\	.
.	16ff#\JJ	.
8B'\	16een\LL	.
.	16dd#\	.
8F#'\J	16ee\	.
.	16cc#\JJ	.
=128	=128	=128
8B\L	8b'\L	.
16.B\L	8b'\	]
32A#\JJk	.	.
16.B\LL	8b'\	.
32d#\K	.	.
16.f#'\	8f#'\J	.
32d#'\JJk	.	.
=129	=129	=129
8c#'\L	2r	.
8c#'\	.	.
8c#'\	.	.
16d#\L	.	.
16e\JJ	.	.
!!LO:PB:g=original
=130	=130	=130
2r	16f#/LL	.
!	!	!LO:DY:rj
.	16e#X/	pp
.	16g#/	.
.	16f#/JJ	.
.	16en/LL	.
.	16d#/	.
.	16e/	.
.	16c#/JJ	.
=131	=131	=131
2ryy	4r	.
.	8B</L	.
.	8F#</J	.
=132	=132	=132
!	!LO:TX:b:i:t=quasi niente	!
2ryy	4r<	.
.	8B</	.
.	8r<	.
=133	=133	=133
4r	2ryy	.
8FF#/	.	.
8r	.	.
=134	=134	=134
4r	2ryy	.
8BBB/	.	.
!	!LO:TX:t=P:problem=fermata na kresce taktowej	!
8r	.	.
*kcancel	*kcancel	*
=135||	=135||	=135||
*k[f#c#]	*k[f#c#]	*
*M3/4	*M3/4	*
.	8qff# 8qf#/	.
!	!LO:TX:a:Bi:t=Andante	!
!	!LO:TX:b:i:t=con Tristezza	!LO:DY:rj:t=p.
2r	2.ff# 2.f#tt</	p
4r	.	.
!!LO:LB:g=original
=136	=136	=136
*^	*	*
2.d/	8.dL 8.B\	2.ff# 2.f#tt</	.
.	16d\Jk	.	.
.	4c#\	.	.
.	4B\	.	.
*v	*v	*	*
=137	=137	=137
2.f# 2.c# 2.A#X\	4fff# 4ff#tt</	.
*	*8va	*
.	4ffff# 4fff#tt</	.
*	*X8va	*
.	4fff# 4ff#tt</	.
=138	=138	=138
*^	*	*
2.cn/	8.cL 8.A\	2.ff# 2.f#tt</	.
.	16c\Jk	.	.
.	4B\	.	.
.	4A\	.	.
*v	*v	*	*
=139	=139	=139
2.e 2.B 2.G#X\	4bb 4bTT</	.
*	*8va	*
.	4bbb 4bbTT</	.
*	*X8va	*
.	4bb 4bTT</	.
=140	=140	=140
*^	*	*
2.B/	8.BL 8.Gn\	2.bb 2.bT/	.
.	16B\Jk	.	.
.	4A\	.	.
.	4G\	.	.
*v	*v	*	*
=141	=141	=141
2.d 2.B 2.F#\	4ff# 4f#tt</	.
.	4fff# 4ff#tt</	.
.	4ff# 4f#tt</	.
16Eqq#X\LL	.	.
16qqF#\	.	.
16qqG\	.	.
16qqF#\	.	.
16qqE#\	.	.
16qqF#\	.	.
16qqG\JJ	.	.
!!LO:LB:g=original
=142	=142	=142
32qqFF#\LLL	.	.
32qqE\	.	.
32qqA#X\JJJ	.	.
2G\	2.ff# 2.f#tt</	.
4F#\	.	.
=143!|:	=143!|:	=143!|:
*>F	*>F	*>F
!	!LO:TX:b:i:t=il canto espressivo	!
8.dL 8.F# 8.BB\	2.ff# 2.f#tt</	.
16d\Jk	.	.
4c# 4F# 4C#\	.	.
4B 4F# 4D\	.	.
=144	=144	=144
8qBB\	.	.
8.f#L 8.d 8.B\	4fff# 4ff#tt</	.
16f#Jk 16d 16B\	.	.
4g 4e 4A#X\	4fff# 4ff#tt</	.
4f# 4d 4B\	4fff# 4ff#tt</	.
=145	=145	=145
8.c#L 8.A#X 8.E\	4ff# 4f#tt</	.
16c#Jk 16A# 16E\	.	.
4d 4A# 4F#\	4ff# 4f#tt</	.
4c# 4A# 4E\	4ff# 4f#tt</	.
=146	=146	=146
4B 4F# 4D\	2.ff# 2.f#tt</	.
12FF#L 12BBB/	.	.
12BB 12FF#/	.	.
12F#J 12BB/	.	.
12BBL 12FF#/	.	.
12F# 12BB/	.	.
12BJ 12F#/	.	.
!!LO:LB:g=original
=147:|!	=147:|!	=147:|!
*>G	*>G	*>G
8.AL 8.C# 8.AA\	2.aa 2.aTT</	.
!	!LO:TX:Bi:t=poco cresc_:problem=dynamics with extention lines	!LO:HP:t=poco cresc_
16AJk 16C#\	.	<
4B 4D\	.	.
4c# 4E\	.	.
=148	=148	=148
8qDD\	.	.
*	*8va	*
8.dL 8.Fn\	4aaa 4aatt</	.
16dJk 16F\	.	.
4c# 4E\	4aaaa 4aaatt</	.
4d 4F\	4aaa 4aatt</	.
*	*X8va	*
=149	=149	=149
8qAA\	.	.
8.eL 8.c# 8.A\	32a\LLL	.
.	32b-X\	.
.	32cc#\	.
.	32ee\	.
.	32aa\	.
.	32aa\	.
16e\Jk	32aa\	.
.	32aa\JJJ	.
*	*8va	*
4a 4c# 4A\	32aa\LLL	.
.	32bb-\	.
.	32ccc#\	.
.	32eee\	.
.	32aaa\	.
.	32aaa\	.
.	32aaa\	.
.	32aaa\JJJ	.
4g 4e 4c# 4A\	32aaa\LLL	.
.	32bbb-X\	.
.	32cccc#\	.
.	32eeee\	.
.	32gggg\	.
.	32gggg\	.
.	32gggg\	.
.	32gggg\JJJ	[[
=150	=150	=150
!	!LO:TX:Bi:t=cresc_:problem=dynamics with extention lines	!LO:HP:t=cresc_
2.f# 2.e 2.c# 2.A#X\	32ffff#\LLL	<
.	32gggg\	.
.	32ffff#\	.
.	32cccc#\	.
.	32fff#\	.
.	32cccc#\	.
.	32fff#\	.
.	32ccc#\JJJ	.
.	32ccc#\LLL	.
.	32fff#\	.
.	32ccc#\	.
.	32ff#\JJJ	.
*	*X8va	*
.	32ff#\LLL	.
.	32ccc#\	.
.	32ff#\	.
.	32cc#\JJJ	.
.	32cc#\LLL	.
.	32ff#\	.
.	32cc#\	.
.	32f#\	.
.	32f#\	.
.	32cc#\	.
.	32f#\	.
.	32c#\JJJ	[[
!!LO:LB:g=original
=151	=151	=151
8qFFF#/	.	.
48F#\LLL	8.cc#L 8.a#X 8.e\	f
48E#X\	.	.
48En\	.	.
48D#X\	.	.
48Dn\	.	.
48C#\	.	.
48Cn\	.	.
48BB\	.	.
48AA#X\	.	.
48AAn\	16cc#Jk 16a# 16e\	.
48GG#X\	.	.
48GGn\JJJ	.	.
48FF#\LLL	4dd 4a# 4e\	.
48EE#X\	.	.
48EEn\	.	.
48DD#X\	.	.
48DDn\	.	.
48CC#\	.	.
56CCn\	.	.
56BBB\	.	.
56AAA#X\	.	.
56AAAn\	.	.
56GGG#X\	.	.
56GGGn\	.	.
56FFF#\JJJ	.	.
*rscale:1/2	*	*
16EEE#X\LL	4cc# 4a# 4e\	.
16FFF#\	.	.
16EEE#\	.	.
16FFF#\JJ	.	.
*rscale:1	*	*
=152	=152	=152
*8ba	*	*
!	!LO:N:vis=8	!
32BBBB/LLL	8.bL 8.f# 8.d 8.B/	.
32EEE#X/	.	>
32FFF#/	.	.
32BBB/	.	.
32FFF#/	.	.
32AAA#X/	.	.
32BBB/	16ff#Jk 16f#/	.
32FF#/JJJ	.	.
*X8ba	*	*
32BBB/LLL	4gg 4dd 4b 4g\	.
32EE#X/	.	.
32FF#/	.	.
32BB/	.	.
32FF#/	.	.
32AA#X/	.	.
32BB/	.	.
32F#/JJJ	.	.
32BB\LLL	4ff# 4dd 4b 4f#\	.
32E#X\	.	.
32F#\	.	.
32B\	.	.
32F#\	.	.
32A#X\	.	.
32B\	.	.
32f#\JJJ	.	]
=153	=153	=153
24FF#\LL	8.cc#L 8.a#X 8.e\	.
!	!	!LO:DY:rj
24E#X\	.	p
24F#\	.	.
24G\	.	.
24F#\	.	.
.	16eeJk 16a# 16e\	.
24f#\JJ	.	.
*clefG2	*	*
24F#/LL	4dd 4a# 4e\	.
24e#X/	.	.
24f#/	.	.
24g/	.	.
24f#/	.	.
24ff#/JJ	.	.
!!LO:LB:g=original
24f#\LL	4cc# 4a#X 4e\	.
24ee#X\	.	.
24ff#\	.	.
24gg\	.	.
24ff#\	.	.
24fff#\JJ	.	.
=154	=154	=154
*	*8va	*
2b 2f# 2d 2B/	32bbb\LLL	p
.	32eee#X\	.
.	32fff#\	.
.	32ccc#\	.
.	32ddd\	.
.	32aa#X\	.
.	32bb\	.
.	32ee#X\JJJ	.
*	*X8va	*
.	32ff#\LLL	.
.	32cc#\	.
.	32dd\	.
.	32a#X\	.
.	32b\	.
.	32e#X\	.
.	32f#\	.
.	32c#\JJJ	.
!LO:CL:ed	!	!
*clefF4	*	*
4ryy	32d</LLL	.
.	32A#X</	.
.	32B</	.
.	32E#X</	.
.	32F#</	.
.	32C#</	.
.	32D</	.
.	32BB</JJJ	.
=155	=155	=155
!	!LO:N:vis=8	!
24AAA/LL	8.aL 8.e 8.c# 8.A/	.
24GGG#X/	.	.
24AAA/JJ	.	<
32CC#/LLL	.	.
32AA/	.	.
32GGG#/	16aJk 16e 16c# 16A/	.
32AAA/JJJ	.	.
24GGG#/LL	4b 4e 4d 4B/	.
24FFF##X/	.	.
24GGG#/JJ	.	.
32DD/LLL	.	.
32AA/	.	.
32FFF##/	.	.
32GGG#/JJJ	.	.
24GGGn/LL	4cc# 4a 4e 4c#/	.
24FFF#X/	.	.
24GGG/JJ	.	.
32CC#/LLL	.	.
32AA/	.	.
32FFF#/	.	.
32GGG/JJJ	.	.
=156	=156	=156
32FFF#/LLL	8.ddL 8.a 8.f# 8.d/	.
32AAA/	.	.
32CC#/	.	.
32DD/	.	.
32FF#/	.	.
32AA/	.	.
32C#/	16ddJk 16a 16f# 16d/	.
32D/JJJ	.	[
!!LO:LB:g=original
32EE#X\LLL	4cc# 4a 4c#\	.
32AA\	.	.
32BB#X\	.	.
32C#\	.	.
32E#X\	.	.
32A\	.	.
32B#X\	.	.
32c#\JJJ	.	.
32F#\LLL	4dd 4a 4d\	.
32A\	.	.
32c#\	.	.
!	!LO:TX:Bi:t=cresc_:problem=dynamics with extention lines	!LO:HP:t=cresc_
32d\JJJ	.	<
*clefG2	*	*
32f#\LLL	.	.
32a\	.	.
32cc#\	.	.
32dd\JJJ	.	.
*clefF4	*	*
=157	=157	=157
8.AL 8.AA\	32eeLLL 32cc# 32a 32e\	.
.	32a\	.
.	32b\	.
.	32a\	.
.	32aa\	.
.	32aa\	.
*clefG2	*	*
16eeJk 16e\	32ccc#\	.
.	32aa\JJJ	.
*	*8va	*
4aa 4cc# 4a\	32aaa\LLL	.
.	32aaa\	.
.	32bbb\	.
.	32aaa\JJJ	.
*	*X8va	*
.	32aa\LLL	.
.	32aa\	.
.	32bb\	.
.	32aa\JJJ	.
4gg 4cc# 4g\	32a\LLL	[
.	32a\	.
.	32b\	.
.	32a\JJJ	.
.	32A\LLL	.
.	32A\	.
.	32B\	.
!	!LO:TX:t=P:problem=skreślony takt	!
.	32A\JJJ	.
*clefF4	*	*
!!LO:PB:g=original
=158	=158	=158
!	!	!LO:DY:rj
4c# 4A#X\	4ff# 4cc# 4a#X 4f#\	ff
*	*clefF4	*
*8ba	*8ba	*
64AAAA#X/LLLL	80FFF#/LLLL	.
.	80AAA#X/	.
64CCC#/	.	.
.	80CC#/	.
64FFF#/	.	.
.	80EE#X/	.
64GGG##X/JJJJ	.	.
.	80FF#/JJJJ	.
64AAA#X/LLLL	80FF#/LLLL	.
.	80AA#/	.
64CC#/	.	.
.	80C#/	.
64FF#/	.	.
.	80E#X/	.
64AA#X/JJJJ	.	.
.	80F#/JJJJ	.
*X8ba	*X8ba	*
64AAA#/LLLL	80FF#/LLLL	.
.	80AA#X/	.
64CC#/	.	.
.	80C#/	.
64FF#/	.	.
.	80E#X/	.
64GG##X/JJJJ	.	.
.	80F#/JJJJ	.
64AA#/LLLL	80F#/LLLL	.
.	80A#X/	.
64C#/	.	.
.	80c#/	.
64F#/	.	.
.	80e#X/	.
64A#/JJJJ	.	.
.	80f#/JJJJ	.
*	*clefG2	*
64AA#\LLLL	80F#/LLLL	.
.	80A#X/	.
64C#\	.	.
.	80c#/	.
64F#\	.	.
.	80e#X/	.
64G##X\JJJJ	.	.
.	80f#/JJJJ	.
64A#\LLLL	80f#/LLLL	.
.	80a#X/	.
64c#\	.	.
.	80cc#/	.
64f#\	.	.
.	80ee#X/	.
64a#X\JJJJ	.	.
.	80ff#/JJJJ	.
*clefG2	*	*
64A#X/LLLL	80f#\LLLL	.
.	80a#\	.
64c#/	.	.
.	80cc#\	.
64f#/	.	.
.	80ee#\	.
64g##X/JJJJ	.	.
.	80ff#\JJJJ	.
64a#X/LLLL	80ff#\LLLL	.
.	80aa#X\	.
64cc#/	.	.
.	80ccc#\	.
64ff#/	.	.
.	80eee#X\	.
64aa#X/JJJJ	.	.
.	80fff#\JJJJ	.
*	*8va	*
4ff# 4cc# 4a#X\	32fff#\LLL	.
.	32cccc#\	.
.	32fff#\	.
.	32ccc#\JJJ	.
*	*X8va	*
.	32ccc#\LLL	.
.	32fff#\	.
.	32ccc#\	.
.	32ff#\JJJ	.
!LO:N:vis=4	!	!
8r	32ff#\LLL	.
.	32ccc#\	.
.	32ff#\	.
.	32cc#\JJJ	.
!!LO:LB:g=original
*2\left	*	*
*tremolo	*tremolo	*
!	!LO:TX:b:i:t=lungo.	!
32ff#>\LLL	32ff#;/LLL	.
32ff#>\	32ff#/	.
32ff#>\	32ff#/	.
32ff#>\	32ff#/	.
32ff#>\	32ff#/	.
32ff#>\	32ff#/	>
32ff#>\	32ff#/	.
32ff#>\	32ff#/	.
32ff#>\	32ff#/	.
32ff#>\	32ff#/	.
32ff#>\	32ff#/	.
32ff#>\	32ff#/	.
32ff#>\	32ff#/	.
32ff#>\	32ff#/	.
32ff#>\	32ff#/	.
32ff#>\JJJ	32ff#/JJJ	]]
*Xtremolo	*Xtremolo	*
=159	=159	=159
!LO:CL:ed	!	!
*clefF4	*	*
!	!LO:N:vis=8	!
16F#LL 16FF#\	8.ff#L 8.cc# 8.a#X 8.e\	p
16G\	.	.
16F#\	.	.
16A#X\JJ	16ff#Jk 16cc# 16a# 16e\	.
16f#\LL	4ff# 4dd 4a# 4e\	.
16F#\	.	.
16G\	.	.
16F#\JJ	.	.
16A#\LL	4ff# 4cc# 4a# 4e\	.
16F#\	.	.
16G\	.	.
16F#\JJ	.	.
=160	=160	=160
16FF#\LL	8.bL 8.d\	.
16F#\	.	.
16B\	.	.
16c#\JJ	16ff#Jk 16b 16f#\	.
16d\LL	4gg 4b 4g\	.
16c#\	.	.
16B\	.	.
16F#\JJ	.	.
16d\LL	4ff# 4b 4f#\	.
16c#\	.	.
16B\	.	.
16F#\JJ	.	.
=161	=161	=161
16FF#\LL	8.cc#L 8.a#X 8.e\	.
16E#X\	.	.
16F#\	.	.
16G\JJ	16eeJk 16a# 16e\	.
16F#\LL	4dd 4a# 4e\	.
16E#\	.	.
16F#\	.	.
16FF#\JJ	.	.
16GG\LL	4cc# 4a# 4e\	.
16FF#\	.	.
16EE#X\	.	.
16FF#\JJ	.	.
=162	=162	=162
!	!LO:TX:a:i:t=poco più mosso	!
4BB 4BBB/	4b 4f# 4d 4B\	.
*	*2\left	*
.	.	p
2BB/	2B\	.
!!LO:LB:g=original
=163	=163	=163
*clefF4	*	*
8D/L	8d/L	.
8D/J	8d/J	.
2BB/	2B/	.
=164	=164	=164
8D/L	8d/L	.
8D/J	8d/J	.
4BB/	4B/	.
4D/	4d/	.
=165	=165	=165
4F#/	4f#/	.
2F#/	2f#/	.
=166	=166	=166
!	!LO:TX:a:i:t=tempo primo 'dol Andante	!
16F#LL 16FF#\	8.ff#L 8.cc# 8.a#X 8.e\	.
!	!	!LO:DY:rj
16G\	.	pp
16F#\	.	.
16A#X\JJ	16ff#Jk 16cc# 16a# 16e\	.
16f#\LL	4ff# 4dd 4a# 4e\	.
16F#\	.	.
16G\	.	.
16F#\JJ	.	.
16A#\LL	4ff# 4cc# 4a# 4e\	.
16F#\	.	.
16G\	.	.
16F#\JJ	.	.
=167	=167	=167
16FF#\LL	8.bL 8.d\	.
16F#\	.	.
16B\	.	.
16c#\JJ	16ff#Jk 16b 16f#\	.
16d\LL	4gg 4b 4g\	.
16c#\	.	.
16B\	.	.
16F#\JJ	.	.
16d\LL	4ff# 4b 4f#\	.
16c#\	.	.
16B\	.	.
16F#\JJ	.	.
=168	=168	=168
16FF#\LL	24cc#LL 24b 24e\	.
.	24dd\	.
16E#X\	.	.
.	24cc#\	.
16F#\	24b#X\	.
.	24cc#\	.
16G\JJ	.	.
.	24ee\JJ	.
16F#\LL	4dd 4a#X 4e\	.
16E#\	.	.
16F#\	.	.
16FF#\JJ	.	.
16GG/LL	4cc# 4a# 4e\	.
16FF#/	.	.
16EE#X/	.	.
16FF#/JJ	.	.
!!LO:LB:g=original
=169	=169	=169
!	!LO:TX:a:i:t=poco piu mosso.	!
4D 4BBB/	4b 4f# 4d 4B/	.
2D/	2d/	.
=170	=170	=170
8F#/L	8f#/L	.
8F#/J	8f#/J	.
2D/	2d/	.
=171	=171	=171
8F#/L	8f#/L	.
8F#/J	8f#/J	.
4D/	4d/	.
4F# 4D 4BB/	4f# 4d/	.
=172	=172	=172
4E 4AA/	4a 4c#/	.
2E 2AA/	2a 2c#/	.
=173	=173	=173
8F#L 8AA 8DD/	2r	.
!	!LO:TX:Bi:t=accelerando poco a poco e cresc_:problem=dynamics with extention lines	!LO:HP:t=accelerando poco a poco e cresc_
8F#/J	.	<
4D/	.	.
4F#/	4r	.
=174	=174	=174
4A/	8f#/L	.
.	8f#/J	.
2A/	4d/	.
.	4f#/	.
=175	=175	=175
8AL 8C# 8FF#/	4a/	.
8A/J	.	.
4F#/	2a/	.
4A/	.	.
!!LO:LB:g=original
=176	=176	=176
4c#\	8a/L	.
.	8a/J	.
2c#\	4f#/	.
.	4a/	.
=177	=177	=177
8c#L 8E 8AA\	4cc#/	.
8c#\J	.	.
4A\	2cc#/	.
4c#\	.	.
=178	=178	=178
8e>\L	8cc#/L	.
8e>\J	8cc#/J	.
4c#>\	4a/	.
4e>\	4cc#/	.
=179	=179	=179
8g>\L	8ee/L	.
8g>\J	8ee/J	.
4e>\	4cc#/	.
4g>\	4ee/	.
=180	=180	=180
8b>\L	8gg/L	.
8b>\J	8gg/J	[
4g>\	4ee/	.
4b>\	4gg/	.
=181	=181	=181
8.b>L 8.g> 8.e> 8.c#>\	8.bb/L	sf
16a>\Jk	16aa/Jk	.
8g>\L	8gg/L	.
8f#>\	8ff#/	.
8e>\	8ee/	.
8d#X>\J	8dd#X/J	.
=182	=182	=182
8.e>\L	8.ee/L	.
16dn>\Jk	16ddn/Jk	.
8c#>\L	8cc#/L	.
8B>\	8b/	.
8A>\	8a/	.
8G#X>\J	8g#X/J	.
!!LO:LB:g=original
=183	=183	=183
!	!	!LO:DY:t=sf.
8.BL 8.G 8.E 8.C#\	8.b/L	sf
16A\Jk	16a/Jk	.
8G\L	8g/L	.
8F#\	8f#/	.
8E\	8e/	.
8D#X\J	8d#X/J	.
=184	=184	=184
8.E\L	8.e/L	.
16Dn\Jk	16dn/Jk	.
8C#\L	8c#/L	.
8BB\	8B/	.
8AA\	8A/	.
8GG#X\J	8G#X/J	.
=185	=185	=185
8.BBL 8.GG 8.EE 8.CC#\	8.B</L	.
16AA\Jk	16A</Jk	.
!	!LO:TX:b:i:t=poco rit.:dur=5q:ext=ud:problem=text with extention lines	!
8GG\L	8G</L	.
8FF#\	8F#</	.
8EE\J	8E</	.
8rDD	8D</J	.
=186	=186	=186
!LO:TX:t=ms.	!	!
8C#/L	2.ryy	.
8BB/	.	.
8AA/	.	.
8GG/	.	.
8FF#/	.	.
8EE/J	.	.
=187||	=187||	=187||
!LO:TX:t=P:problem=mixed beam	!LO:TX:a:Bi:t=Allegramente.	!
8DD/L	4ff# 4a 4f#\	.
!	!	!LO:DY:rj:t=p.
8d\	.	p
!	!LO:TX:b:i:t=non legato	!
8c#\	4a 4f#\	.
8B\	.	.
8A\	4dd 4f#\	.
8G#X\J	.	.
=188	=188	=188
8A\L	8ff#L 8dd 8f#\	.
8F#\	8ff#J 8dd 8f#\	.
8E\	4a 4f#\	.
8D\	.	.
8C#\	4dd 4f#\	.
8BB\J	.	.
!!LO:LB:g=original
=189	=189	=189
8AA\L	4ff# 4dd 4f#\	.
8BB\	.	.
8AA\	4a 4f#\	.
8GG\	.	.
8FF#\	4dd 4f#\	.
8EE\J	.	.
=190	=190	=190
8DD\L	8ff#L 8dd 8f#\	.
8EE\	8ff#J 8dd 8f#\	.
8FF#\	4dd 4f#\	.
8GG\	.	.
8GG#X\	4ff# 4dd 4f#\	.
8AA\J	.	.
=191	=191	=191
8AAL 8AAA\	4aa 4ee 4cc# 4a\	.
8GG#X\	.	.
8AA\	4.cc# 4.c#\	.
8BB\	.	.
8C#\	.	.
8AA\J	8ee 8e\	.
=192	=192	=192
8DL 8DD\	8ggL 8a 8g\	.
8C#\	8ff#J 8f#\	.
8D\	4.dd 4.d\	.
8E\	.	.
8F#\	.	.
8D\J	8b 8B\	.
=193	=193	=193
8AL 8AA\	8aL 8e 8c# 8A\	.
8B\	8aJ 8A\	.
8A\	4b 4B\	.
8G\	.	.
8F#\	4cc# 4c#\	.
8E\J	.	.
=194	=194	=194
8DL 8DD\	4dd 4a 4f# 4d\	.
8E\	.	.
8D\	4ff# 4f#\	.
8C#\	.	.
8BB\	4aa 4a\	.
8AA\J	.	.
=195	=195	=195
8AAL 8AAA\	4aa 4ee 4cc# 4a\	.
8GG#X\	.	.
8AA\	4.cc# 4.c#\	.
8BB\	.	.
8C#\	.	.
8AA\J	8ee 8e\	.
!!LO:PB:g=original
=196	=196	=196
8DL 8DD\	8ggL 8a 8g\	.
8C#\	8ff#J 8f#\	.
8D\	4.dd 4.d\	.
8E\	.	.
8F#\	.	.
8D\J	8b 8B\	.
=197	=197	=197
8AL 8AA\	8aL 8e 8c# 8A\	.
8B\	8aJ 8A\	.
8A\	4b 4B\	.
8G\	.	.
8F#\	4cc# 4c#\	.
8E\J	.	.
=198	=198	=198
8DL 8DD\	4dd 4a 4f# 4d\	.
8BB\	.	.
8AA\	4r	.
8GG\	.	.
8FF#\	4r	.
8EE\J	.	.
=199	=199	=199
!LO:TX:t=P:problem=mixed beam	!	!
8DDL 8DDD/	4ff# 4a 4f#\	ff
8d 8D\	.	.
!	!LO:TX:b:i:t=con bravura	!
8c# 8C#\	4a 4f#\	.
8B 8BB\	.	.
8A 8AA\	4dd 4f#\	.
8G#XJ 8GG#X\	.	.
=200	=200	=200
8AL 8AA\	8ff#L 8dd 8f#\	.
8F# 8FF#\	8ff#J 8dd 8f#\	.
8E 8EE\	4a 4f#\	.
8D 8DD\	.	.
8C# 8CC#\	4dd 4f#\	.
8BBJ 8BBB\	.	.
=201	=201	=201
8AAL 8AAA/	4ff# 4dd 4f#\	.
8BB 8BBB/	.	.
8AA 8AAA/	4a 4f#\	.
8GG 8GGG/	.	.
8FF# 8FFF#/	4dd 4f#\	.
8EEJ 8EEE/	.	.
=202	=202	=202
8DDL 8DDD/	8ff#L 8dd 8f#\	.
8EE 8EEE/	8ff#J 8dd 8f#\	.
8FF# 8FFF#/	4dd 4f#\	.
8GG 8GGG/	.	.
8GG#X 8GGG#X/	4ff# 4dd 4f#\	.
8AAJ 8AAA/	.	.
!!LO:LB:g=original
=203	=203	=203
8AAL 8AAA/	4aa 4ee 4cc# 4a\	.
8GG#X 8GGG#X/	.	.
8AA 8AAA/	4.cc# 4.c#\	.
8BB 8BBB/	.	.
8C# 8CC#/	.	.
8AAJ 8AAA/	8ee 8e\	.
=204	=204	=204
8DL 8DD/	8ggL 8a 8g\	.
8C# 8CC#/	8ff#J 8f#\	.
8D 8DD/	4.dd 4.d\	.
8E 8EE/	.	.
8F# 8FF#/	.	.
8DJ 8DD/	8b 8B\	.
=205	=205	=205
8AL 8AA/	8aL 8e 8c# 8A/	.
8B 8BB/	8aJ 8A/	.
8A 8AA/	4b 4B/	.
8G 8GG/	.	.
8F# 8FF#/	4cc# 4c#/	.
8EJ 8EE/	.	.
=206	=206	=206
8DL 8DD/	4dd 4a 4f# 4d/	.
8E 8EE/	.	.
8D 8DD/	4ff# 4f#/	.
8C# 8CC#/	.	.
8BB 8BBB/	4aa 4a/	.
8AAJ 8AAA/	.	.
=207	=207	=207
8AAL 8AAA/	4aa 4ee 4cc# 4a\	.
8GG#X 8GGG#X/	.	.
8AA 8AAA/	4.cc# 4.c#\	.
8BB 8BBB/	.	.
8C# 8CC#/	.	.
8AAJ 8AAA/	8ee 8e\	.
=208	=208	=208
8DL 8DD/	8ggL 8a 8g\	.
8C# 8CC#/	8ff#J 8f#\	.
8D 8DD/	4.dd 4.d\	.
8E 8EE/	.	.
8F# 8FF#/	.	.
8DJ 8DD/	8b 8B\	.
!!LO:LB:g=original
=209	=209	=209
8AL 8AA/	8aL 8e 8c# 8A/	.
8B 8BB/	8aJ 8A/	.
8A 8AA/	4b 4B/	.
8G 8GG/	.	.
8F# 8FF#/	4cc# 4c#/	.
8EJ 8EE/	.	.
=210	=210	=210
8DL 8DD/	4dd 4a 4f# 4d\	.
8AA/	.	.
8D/	4r	.
8E/	.	.
8F#/	4r	.
8G#X/J	.	.
=211	=211	=211
4c# 4AA\	8r	.
*	*8va	*
!	!	!LO:DY:rj
.	8aaaL 8fff#\	pp
4E\	8ggg#X 8eee\	.
!	!LO:TX:b:i:t=scherzando	!
.	8fff# 8ddd\	.
4A\	8eee 8ccc#\	.
.	8ddd#XJ 8bb#X\	.
=212	=212	=212
8c#\L	8eeeL 8ccc#\	.
8c#\J	8ccc#J 8aa\	.
*	*X8va	*
4E\	8bbL 8gg#X\	.
.	8aa 8ff#\	.
4A\	8gg# 8ee\	.
.	8ff#J 8dd\	.
=213	=213	=213
4c# 4AA\	8eeL 8cc#\	.
.	8ff# 8dd\	.
4E\	8ee 8cc#\	.
.	8dd 8b\	.
4A\	8cc# 8a\	.
.	8bJ 8g#X\	.
=214	=214	=214
8c#\L	8a\L	.
8c#\J	8b 8a\	.
4A\	8cc# 8a\	.
.	8dd\	.
4c#\	8dd#X 8a\	.
.	8ee\J	.
!!LO:LB:g=original
=215	=215	=215
*	*^	*
4e 4E\	4g#X/	8ee\L	.
.	.	8dd#X\	.
4.G#X\	4.b/	8ee\	.
.	.	8ff#\	.
.	.	8gg#X\	.
8B\	8g#/	8ee\J	.
=216	=216	=216	=216
8dL 8A\	4a/	8aa\L	.
8c#\J	.	8ee\	.
4.A 4.F#\	4.cc#/	8aa\	.
.	.	8bb\	.
.	.	8ccc#\	.
8F#\	8cc#/	8aa\J	.
*	*v	*v	*
=217	=217	=217
8EL 8EE\	8eeeL 8gg#X\	.
8E\J	8fff# 8aa\	.
4F#\	8eee 8gg#\	.
.	8ddd 8ff#\	.
4G#X\	8ccc# 8ee\	.
.	8bbJ 8dd\	.
=218	=218	=218
4A 4AA\	8aaL 8cc#\	.
.	8bb 8dd\	.
4c#\	8aa 8cc#\	.
.	8gg#X 8b\	.
4e\	8ff# 8a\	.
.	8eeJ 8cc#\	.
=219	=219	=219
*	*^	*
4e 4E\	4g#X/	8ee\L	.
.	.	8dd#X\	.
4.G#X\	4.b/	8ee\	.
.	.	8ff#\	.
.	.	8gg#X\	.
8B\	8g#/	8ee\J	.
=220	=220	=220	=220
8dL 8A\	4a/	8aa\L	.
8c#\J	.	8ee\	.
4.A 4.F#\	4.cc#/	8aa\	.
.	.	8bb\	.
.	.	8ccc#\	.
8F#\	8cc#/	8aa\J	.
*	*v	*v	*
!!LO:LB:g=original
=221	=221	=221
8EL 8EE\	8eeeL 8gg#X\	.
8E\J	8fff# 8aa\	.
4F#\	8eee 8gg#\	.
.	8ddd 8ff#\	.
4G#X\	8ccc# 8ee\	.
.	8bbJ 8dd\	.
=222	=222	=222
8AL 8E 8AA\	4aa 4cc#\	.
8B\	.	.
8A\	4r	.
8Gn\	.	.
8F#\	4r	.
8E\J	.	.
=223	=223	=223
8DL 8DD\	4ff# 4a 4f#\	.
!	!	!LO:DY:rj
8d 8D\	.	ff
8c# 8C#\	4a 4f#\	.
8B 8BB\	.	.
8A 8AA\	4dd 4f#\	.
8G#XJ 8GG#X\	.	.
=224	=224	=224
8AL 8AA\	8ff#L 8dd 8f#\	.
8F# 8FF#\	8ff#J 8dd 8f#\	.
8E 8EE\	4a 4f#\	.
8D 8DD\	.	.
8C# 8CC#\	4dd 4f#\	.
8BBJ 8BBB\	.	.
=225	=225	=225
8AAL 8AAA/	4ff# 4dd 4f#\	.
8BB 8BBB/	.	.
8AA 8AAA/	4a 4f#\	.
8GG 8GGG/	.	.
8FF# 8FFF#/	4dd 4f#\	.
8EEJ 8EEE/	.	.
=226	=226	=226
8DDL 8DDD/	8ff#L 8dd 8f#\	.
8EE 8EEE/	8ff#J 8dd 8f#\	.
8FF# 8FFF#/	4dd 4f#\	.
8GG 8GGG/	.	.
8GG#X 8GGG#X/	4ff# 4dd 4f#\	.
8AAJ 8AAA/	.	.
!!LO:LB:g=original
=227	=227	=227
8AAL 8AAA/	4aa 4ee 4cc# 4a\	.
8GG#X 8GGG#X/	.	.
8AA 8AAA/	4.cc# 4.c#\	.
8BB 8BBB/	.	.
8C# 8CC#/	.	.
8AAJ 8AAA/	8ee 8e\	.
=228	=228	=228
8DL 8DD/	8ggL 8a 8g\	.
8C# 8CC#/	8ff#J 8f#\	.
8D 8DD/	4.dd 4.d\	.
8E 8EE/	.	.
8F# 8FF#/	.	.
8DJ 8DD/	8b 8B\	.
=229	=229	=229
8AL 8AA\	8aL 8e 8c# 8A\	.
8B 8BB\	8aJ 8A\	.
8A 8AA\	4b 4B\	.
8G 8GG\	.	.
8F# 8FF#\	4cc# 4c#\	.
8EJ 8EE\	.	.
=230	=230	=230
8DL 8DD\	4dd 4a 4f# 4d\	.
8E 8EE\	.	.
8D 8DD\	4ff# 4f#\	.
8C# 8CC#\	.	.
8BB 8BBB\	4aa 4a\	.
8AAJ 8AAA\	.	.
=231	=231	=231
8AAL 8AAA/	4aa 4ee 4cc# 4a\	.
8GG#X 8GGG#X/	.	.
8AA 8AAA/	4.cc# 4.c#\	.
8BB 8BBB/	.	.
8C# 8CC#/	.	.
8AAJ 8AAA/	8ee 8e\	.
=232	=232	=232
8DL 8DD/	8ggL 8a 8g\	.
8C# 8CC#/	8ff#J 8f#\	.
8D 8DD/	4.dd 4.d\	.
8E 8EE/	.	.
8F# 8FF#/	.	.
8DJ 8DD/	8b 8B\	.
!!LO:LB:g=original
=233	=233	=233
8AL 8AA\	8aL 8e 8c# 8A/	.
8B 8BB\	8aJ 8A/	.
8A 8AA\	4b 4B/	.
8G 8GG\	.	.
8F# 8FF#\	4cc# 4c#/	.
8EJ 8EE\	.	.
=234||	=234||	=234||
!	!LO:TX:b:i:t=Con forza e bravura possibile:dur=8q:problem=text with extention lines	!
!LO:TX:b:i:t=L'istesso tempo.	!LO:TX:a:t=Coda	!
8DL 8DD\	8ddL 8a 8f# 8d\	.
*clefG2	*	*
*	*8va	*
8dd 8d\	8dddd 8ddd\	.
8cc# 8c#\	8cccc# 8ccc#\	.
8b 8B\	8bbb 8bb\	.
8a 8A\	8aaa 8aa\	.
8g#XJ 8G#X\	8ggg#XJ 8gg#X\	.
*clefF4	*	*
=235	=235	=235
8aL 8A\	8aaaL 8aa\	.
*	*X8va	*
8f# 8F#\	8fff# 8ff#\	.
8e 8E\	8eee 8ee\	.
8d 8D\	8ddd 8dd\	.
8c# 8C#\	8ccc# 8cc#\	.
8BJ 8BB\	8bbJ 8b\	.
=236	=236	=236
8AL 8F# 8D 8AA\	8aaL 8ff# 8dd 8a\	.
8d 8D\	8ddd 8dd\	.
8c# 8C#\	8ccc# 8cc#\	.
8B 8BB\	8bb 8b\	.
8A 8AA\	8aa 8a\	.
8G#XJ 8GG#X\	8gg#XJ 8g#X\	.
=237	=237	=237
8AL 8AA\	8aaL 8a\	.
8F# 8FF#\	8ff# 8f#\	.
8E 8EE\	8ee 8e\	.
8D 8DD\	8dd 8d\	.
8C# 8CC#\	8cc# 8c#\	.
8BBJ 8BBB\	8bJ 8B\	.
=238	=238	=238
4BB-X 4FFn 4DD 4BBB-X\	4b-X 4fn 4d 4B-X\	.
*2\right	*	*
2BB- 2FF 2DD 2BBB-\	2b- 2f 2d 2B-\	.
=239	=239	=239
8DL 8DD\	8ddL 8d\	.
8DJ 8DD\	8ddJ 8d\	.
2BB-X 2FFn 2DD 2BBB-X\	2b-X 2fn 2d 2B-X\	.
!!LO:LB:g=original
=240	=240	=240
8AAL 8FF# 8DD 8AAA/	8aL 8f# 8d 8A\	.
8AAJ 8AAA/	8aJ 8A\	.
4D 4DD/	4dd 4d\	.
4F# 4FF#/	4ff# 4f#\	.
=241	=241	=241
4AA 4AAA/	4aa 4a\	.
*2\left	*2\right	*
2e 2A 2G\	2aa 2cc# 2a\	.
=242	=242	=242
8DL 8DD\	8ddL 8a 8f# 8d\	.
*clefG2	*	*
*	*8va	*
8dd 8d\	8dddd 8ddd\	.
8cc# 8c#\	8cccc# 8ccc#\	.
8b 8B\	8bbb 8bb\	.
8a 8A\	8aaa 8aa\	.
8g#XJ 8G#X\	8ggg#XJ 8gg#X\	.
*	*X8va	*
=243	=243	=243
8aL 8A/	8aaaL 8aa\	.
8f#J 8F#/	8fff# 8ff#\	.
*clefF4	*	*
8eL 8E\	8eee 8ee\	.
8d 8D\	8ddd 8dd\	.
8c# 8C#\	8ccc# 8cc#\	.
8BJ 8BB\	8bbJ 8b\	.
=244	=244	=244
8AL 8F# 8D 8AA\	8aaL 8ff# 8dd 8a\	.
8f# 8F#\	8fff# 8ff#\	.
8e 8E\	8eee 8ee\	.
8d 8D\	8ddd 8dd\	.
8c# 8C#\	8ccc# 8cc#\	.
8BJ 8BB\	8bbJ 8b\	.
=245	=245	=245
8AL 8AA\	8aaL 8a\	.
8F# 8FF#\	8ff# 8f#\	.
8E 8EE\	8ee 8e\	.
8D 8DD\	8dd 8d\	.
8C# 8CC#\	8cc# 8c#\	.
8BBJ 8BBB\	8bJ 8B\	.
!!LO:LB:g=original
=246	=246	=246
4BB-X 4FFn 4DD 4BBB-X/	4b-X 4fn 4d 4B-X/	.
2BB- 2FF 2DD 2BBB-/	2b- 2f 2d 2B-/	.
=247	=247	=247
8DL 8DD/	8ddL 8d/	.
8DJ 8DD/	8ddJ 8d/	.
2BB-X 2FFn 2DD 2BBB-X/	2b-X 2fn 2d 2B-X/	.
=248	=248	=248
8AAL 8FF# 8DD 8AAA/	8aL 8f#X 8d 8A/	.
8AAJ 8AAA/	8aJ 8A/	.
4D 4DD/	4dd 4d\	.
4F# 4FF#/	4ff# 4f#\	.
=249	=249	=249
4AA 4AAA/	4aa 4a\	.
2e 2A 2G\	2aa 2cc# 2a\	.
=250	=250	=250
4DD 4DDD/	4dd 4a 4f# 4d\	.
4FF#/	4f# 4F#/	.
4AA/	4a 4A/	.
=251	=251	=251
8D/L	8ddL 8d/	.
8D/J	8ddJ 8d/	.
4AA/	4a 4A/	.
4D/	4dd 4d/	.
=252	=252	=252
4Fn 4D 4BB-X\	4ffn 4dd 4b-X 4fn\	.
4BB-\	4b- 4B-X\	.
4D 4BB-\	4dd 4d\	.
!!LO:LB:g=original
=253	=253	=253
8AL 8G 8C# 8AA\	8aaL 8ff# 8a\	.
8AJ 8G 8C# 8AA\	8aaJ 8ee 8a\	.
4A 4G 4C# 4AA\	4aa 4cc# 4a\	.
4A 4G 4C# 4AA\	4aa 4a\	.
=254	=254	=254
4F# 4AA 4DD\	4ddd 4aa 4ff# 4dd\	.
4F#\	4ff# 4f#\	.
4A\	4aa 4a\	.
=255	=255	=255
8d\L	8dddL 8dd\	.
8d\J	8dddJ 8dd\	.
4A\	4aa 4a\	.
4d\	4ddd 4dd\	.
=256	=256	=256
4fn 4d 4B-X\	4fffn 4ddd 4bb-X 4ffn\	.
4B-\	4bb- 4b-X\	.
4d 4B-\	4ddd 4dd\	.
*clefG2	*	*
=257	=257	=257
*	*8va	*
8aL 8g 8c# 8A/	8aaaL 8fff# 8aa\	.
8aJ 8g 8c# 8A/	8aaaJ 8eee 8aa\	.
4a 4g 4c# 4A/	4aaa 4ccc# 4aa\	.
4a 4g 4c# 4A/	4aaa 4aa\	.
*clefF4	*X8va	*
=258	=258	=258
8dL 8A 8F# 8D\	8dddL 8aa 8ff# 8dd\	.
*clefG2	*8va	*
8dd 8a 8f# 8d\	8dddd 8aaa 8fff# 8ddd\	.
8dd 8a 8f# 8d\	8dddd 8aaa 8fff# 8ddd\	.
8b 8g#X 8fn 8d 8B\	8bbb 8ggg#X 8fffn 8ddd 8bb\	.
8b 8g# 8f 8d 8B\	8bbb 8ggg# 8fff 8ddd 8bb\	.
8aJ 8f#X 8d 8A\	8aaaJ 8fff#X 8ddd 8aa\	.
*clefF4	*X8va	*
!!LO:LB:g=original
=259	=259	=259
*	*8va	*
8aL 8f# 8d 8A\	8aaaL 8fff# 8ddd 8aa\	.
8f# 8d 8A 8F#\	8fff# 8ddd 8aa 8ff#\	.
8f# 8d 8A 8F#\	8fff# 8ddd 8aa 8ff#\	.
*	*X8va	*
8d 8A 8F# 8D\	8ddd 8aa 8ff# 8dd\	.
8d 8A 8F# 8D\	8ddd 8aa 8ff# 8dd\	.
8BJ 8G#X 8Fn 8D 8BB\	8bbJ 8gg#X 8ffn 8dd 8b\	.
=260	=260	=260
8BL 8G#X 8Fn 8D 8BB\	8bbL 8gg#X 8ffn 8dd 8b\	.
8A 8F#X 8D 8AA\	8aa 8ff#X 8dd 8a\	.
8A 8F# 8D 8AA\	8aa 8ff# 8dd 8a\	.
8F# 8D 8AA 8FF#\	8ff# 8dd 8a 8f#\	.
8F# 8D 8AA 8FF#\	8ff# 8dd 8a 8f#\	.
8DJ 8AA 8FF# 8DD\	8ddJ 8a 8f# 8d\	.
=261	=261	=261
8DL 8AA 8FF# 8DD/	8ddL 8a 8f# 8d\	.
8BB 8GG#X 8FFn 8DD 8BBB/	8b 8g#X 8fn 8d 8B\	.
8BB 8GG# 8FF 8DD 8BBB/	8b 8g# 8f 8d 8B\	.
8AA 8FF#X 8DD 8AAA/	8a 8f#X 8d 8A\	.
8AA 8FF# 8DD 8AAA/	8a 8f# 8d 8A\	.
8FF#J 8DD 8AAA 8FFF#/	8f#J 8d 8A 8F#\	.
=262	=262	=262
4DD 4AAA 4FFF# 4DDD/	4d< 4A< 4F#< 4D</	.
4r	4r	.
4r	4r	.
=263	=263	=263
4D 4AA 4FF# 4DD\	4dd 4a 4f# 4d\	.
4D 4AA 4FF# 4DD\	4dd 4a 4f# 4d\	.
4D 4AA 4FF# 4DD\	4dd 4a 4f# 4d\	.
=264	=264	=264
4d 4A 4F# 4D\	4ddd 4aa 4ff# 4dd\	.
4r	4r	.
4r	4r	.
!!LO:LB:g=original
=265	=265	=265
*clefG2	*8va	*
4dd 4a 4f# 4d/	4dddd 4aaa 4fff# 4ddd\	.
*	*X8va	*
4r	4r	.
4r	4r	.
!LO:CL:ed	!	!
*clefF4	*	*
=266	=266	=266
!	!LO:TX:b:t=Fine.	!
8qDD 8qDDD\	8qD</	.
*2\right	*	*
2.DD 2.DDD\	2.D<;/	.
==	==	==
*-	*-	*-
!!!system-decoration: {(s1,s2)}
!!!RDF**kern: > = above
!!!RDF**kern: < = below
!!!ENC: Andrzej Kubiczek
!!!END: 2021-05-30
!!!ENC: Andrzej Gręziak
!!!END: 2021-05-10
